!!!!SEGMENT: pl-stab--10a--001-009_rodowski-aleksander--litanie-lauretane-de-b-v-m-regina-angelorum.krn
!!!cenid: 18xx:3439
!!!COM: Rodowski, Aleksander
!!!COM-rismID: pe30009627
!!!CDT: <1790->1810
!!!CNT: Polish
!!!OPR: Litanie Lauretane de B.V.M
!!!OTL: Regina angelorum
!!!OMV: 009
!!!PDT:
!!!AGN: Sacred
!!!YEC: Copyright 2022 Narodowy Instytut Fryderyka Chopina (https://polishscores.org)
!!!YEM: License CC-BY-4.0 (https://creativecommons.org/licenses/by/4.0)
!!!SMS-siglum: PL-STAb
!!!SMS-shelfmark: 10a
!!!SMS-shelfwork: 001-009 M
!!!SMS-variant:
!!!SMS-altvar:
!!!NIFC-rismSourceID: 301050674
!!!NIFC-rismChildID: 301050674
!!!NIFC-islandoraID: pl-stab:2273
!!!URL-pdf-islandora: https://repozytorium.nifc.pl/islandora/object/pl-stab%3A2273/datastream/PDF/view
!!!URL-scan: https://polish.musicsources.pl/pl/lokalizacje/galeria/rekopisy/4397 @EN{Scan on Polish Music Sources Website} @PL{Skany w portalu Dziedzictwo Muzyki Polskiej w otwartym dostępie}
!!!IIIF:
!!!ONB-nifc: UWAGA: części Litanii: 1. Kyrie, 2. Pater de caelis, 3. Sancta Maria, 4. Mater Christi, 5. Mater amabilis, 6. Virgo prudentissima, 7. Rosa mistica, 8. Salus infirmorum, 9. Regina angelorum, 10. Agnus Dei
!!!AIN: 1 bass 2 cor 1 organ 1 soprn 1 tenor 2 violn
!!!key: D
**kern	**fba	**dynam	**kern	**dynam	**kern	**dynam	**kern	**text	**kern	**text	**kern	**text	**kern	**kern
*	*	*	*group3	*	*group3	*	*group2	*	*group2	*	*group2	*	*group1	*group1
*part8	*	*	*part7	*	*part6	*	*part5	*	*part4	*	*part3	*	*part2	*part1
*staff8	*	*	*staff7	*	*staff6	*	*staff5	*	*staff4	*	*staff3	*	*staff2	*staff1
*I"Organo	*	*	*I"Violino Secundo	*	*I"Violino Primo	*	*I"Baſso	*	*I"Tenore	*	*I"Canto	*	*I"Cornu Secundo in G.	*I"Cornu Primo in G.
*I'org	*	*	*I'vl 2	*	*I'vl 1	*	*I'B	*	*I'T	*	*I'S	*	*I'cor 2 in G	*I'cor 1 in G
*Iorgan	*	*	*Ivioln	*	*Ivioln	*	*Ibass	*	*Itenor	*	*Isoprn	*	*Icor	*Icor
*ICklav	*	*	*ICstr	*	*ICstr	*	*ICvox	*	*ICvox	*	*ICvox	*	*ICbras	*ICbras
*IGcont	*	*	*IGacmp	*	*IGacmp	*	*IGcoro	*	*IGcoro	*	*IGcoro	*	*IGacmp	*IGacmp
*clefF4	*	*	*clefG2	*	*clefG2	*	*clefF4	*	*clefC4	*	*clefC1	*	*clefG2	*clefG2
*	*	*	*	*	*	*	*	*	*	*	*	*	*ITrd6c10	*ITrd6c10
*k[f#c#]	*	*	*k[f#c#]	*	*k[f#c#]	*	*k[f#c#]	*	*k[c#f#]	*	*k[c#f#]	*	*k[f#c#]	*k[f#c#]
*D:	*	*	*D:	*	*D:	*	*D:	*	*D:	*	*D:	*	*D:	*D:
*M3/4	*	*	*M3/4	*	*M3/4	*	*M3/4	*	*M3/4	*	*M3/4	*	*M3/4	*M3/4
=1	=1	=1	=1	=1	=1	=1	=1	=1	=1	=1	=1	=1	=1	=1
*	*	*	*	*	*	*below	*	*	*	*	*	*	*	*
!LO:TX:a:rj:t=Allegro	!	!	!	!	!	!	!	!	!	!	!LO:TX:t=P:problem=znaki cc# f#	!	!LO:TX:b:t=Regina in D&colon;	!LO:TX:b:t=Regina in D&colon;
!LO:TX:t=P:problem=mixed beam	!	!	!LO:TX:a:t=allegro	!LO:DY:rj	!LO:TX:a:rj:t=allegro	!LO:DY:rj	!LO:TX:a:rj:t=allegro	!	!LO:TX:a:rj:t=allegro	!	!LO:TX:a:rj:t=allegro	!	!LO:TX:a:rj:t=allegro	!LO:TX:a:rj:t=allegro
8DD/L	8 3	.	4dd 4d/	f	4dd 4d/	f	4d\	Re-	4A\	Re-	4ff#\	Re-	4F#/	4d\
8D\J	.	.	.	.	.	.	.	.	.	.	.	.	.	.
*tremolo	*	*	*	*	*	*	*	*	*	*	*	*	*	*
*2\right	*	*	*	*	*	*	*	*	*	*	*	*	*	*
8D\L	.	.	4ff# 4a 4d/	.	4ddd 4dd\	.	4d\	-gi-	4A\	-gi-	4ff#\	-gi-	4d\	4f#\
8D\	.	.	.	.	.	.	.	.	.	.	.	.	.	.
8D\	.	.	4ff# 4a 4d/	.	4ddd 4dd\	.	4d\	-na	4A\	-na	4ff#\	-na	4d\	4f#\
8D\J	.	.	.	.	.	.	.	.	.	.	.	.	.	.
*tremolo	*	*	*	*	*	*	*	*	*	*	*	*	*	*
=2	=2	=2	=2	=2	=2	=2	=2	=2	=2	=2	=2	=2	=2	=2
*	*	*	*	*	*	*	*2\right	*	*2\right	*	*2\right	*	*2\right	*2\right
!LO:TX:t=P:problem=mixed beam	!	!	!	!	!	!	!	!	!	!	!	!	!	!
8DD/L	.	.	4ff# 4a 4d/	.	4ddd 4dd\	.	2d\	an-	2A\	an-	2ff#\	an-	2d\	2f#\
8D\J	.	.	.	.	.	.	.	.	.	.	.	.	.	.
*tremolo	*	*	*	*	*	*	*	*	*	*	*	*	*	*
8D\L	.	.	16d/LL	.	16ddd\LL	.	.	.	.	.	.	.	.	.
.	.	.	16a/	.	16ccc#\	.	.	.	.	.	.	.	.	.
8D\	.	.	16f#/	.	16bb\	.	.	.	.	.	.	.	.	.
.	.	.	16a/JJ	.	16aa\JJ	.	.	.	.	.	.	.	.	.
*	*	*	*rep	*	*	*	*	*	*	*	*	*	*	*
8D\	.	.	16d/LL	.	16gg#X\LL	.	4d\	-ge-	4A\	-ge-	4ff#\	-ge-	4d\	4f#\
.	.	.	16a/	.	16aa\	.	.	.	.	.	.	.	.	.
8D\J	.	.	16f#/	.	16bb\	.	.	.	.	.	.	.	.	.
.	.	.	16a/JJ	.	16aa\JJ	.	.	.	.	.	.	.	.	.
*Xtremolo	*	*	*Xrep	*	*	*	*	*	*	*	*	*	*	*
=3	=3	=3	=3	=3	=3	=3	=3	=3	=3	=3	=3	=3	=3	=3
!LO:TX:t=P:problem=mixed beam	!	!	!	!	!	!	!	!	!	!	!	!	!	!
8EE/L	6 3	.	4cc# 4e/	.	4gg 4a/	.	4e\	-lo-	4A\	-lo-	4gg\	-lo-	4e\	4g\
8E\J	.	.	.	.	.	.	.	.	.	.	.	.	.	.
*tremolo	*	*	*	*	*	*	*	*	*	*	*	*	*	*
8E\L	.	.	4cc# 4e/	.	4gg 4a/	.	4e\	-rum	4A\	-rum	4gg\	-rum	8A/L	8e\L
8E\	.	.	.	.	.	.	.	.	.	.	.	.	8A/	8e\
8E\	.	.	4cc# 4e/	.	4gg 4a/	.	4r	.	4r	.	4r	.	8A/	8e\
8E\J	.	.	.	.	.	.	.	.	.	.	.	.	8A/J	8e\J
*Xtremolo	*	*	*	*	*	*	*	*	*	*	*	*	*	*
=4	=4	=4	=4	=4	=4	=4	=4	=4	=4	=4	=4	=4	=4	=4
!LO:TX:t=P:problem=mixed beam	!	!	!	!	!	!	!	!	!	!	!	!	!	!
8EE/L	.	.	4cc# 4e/	.	4.gg 4.a/	.	2.r	.	2.r	.	2.r	.	4e\	4g\
8E\J	.	.	.	.	.	.	.	.	.	.	.	.	.	.
*tremolo	*	*	*	*	*	*	*	*	*	*	*	*	*	*
8E\L	.	.	16e/LL	.	.	.	.	.	.	.	.	.	4r	4r
.	.	.	16a/	.	.	.	.	.	.	.	.	.	.	.
8E\	.	.	16g/	.	8ff#\L	.	.	.	.	.	.	.	.	.
.	.	.	16a/JJ	.	.	.	.	.	.	.	.	.	.	.
*	*	*	*rep	*	*	*	*	*	*	*	*	*	*	*
8E\	.	.	16e/LL	.	8ee\	.	.	.	.	.	.	.	4r	4r
.	.	.	16a/	.	.	.	.	.	.	.	.	.	.	.
8E\J	.	.	16g/	.	8dd\J	.	.	.	.	.	.	.	.	.
.	.	.	16a/JJ	.	.	.	.	.	.	.	.	.	.	.
*Xtremolo	*	*	*Xrep	*	*	*	*	*	*	*	*	*	*	*
=5	=5	=5	=5	=5	=5	=5	=5	=5	=5	=5	=5	=5	=5	=5
!LO:TX:t=P:problem=mixed beam	!	!	!	!	!	!	!	!	!	!	!	!	!	!
8AA/L	7 5 3	.	4a 4e/	.	4cc# 4e/	.	4A\	Re-	4c#\	Re-	4ee\	re-	4A/	4e\
8A\J	.	.	.	.	.	.	.	.	.	.	.	.	.	.
*tremolo	*	*	*	*	*	*	*	*	*	*	*	*	*	*
8A\L	.	.	4cc# 4g/	.	4aa 4a/	.	4A\	-gi-	4c#\	-gi-	4ee\	-gi-	4A/	4e\
8A\	.	.	.	.	.	.	.	.	.	.	.	.	.	.
8A\	.	.	4cc# 4g/	.	4aa 4a/	.	4A\	-na	4c#\	-na	4ee\	-na	4A/	4e\
8A\J	.	.	.	.	.	.	.	.	.	.	.	.	.	.
*Xtremolo	*	*	*	*	*	*	*	*	*	*	*	*	*	*
=6	=6	=6	=6	=6	=6	=6	=6	=6	=6	=6	=6	=6	=6	=6
!LO:TX:t=P:problem=mixed beam	!	!	!	!	!	!	!	!	!	!	!	!	!	!
8AA/L	.	.	4cc# 4g/	.	4aa 4a/	.	4A\	pa-	4c#\	pa-	4ee\	pa-	2A/	2e\
8A\	.	.	.	.	.	.	.	.	.	.	.	.	.	.
8A\	.	.	16e/LL	.	16gg#X\LL	.	4A\	-tri-	4c#\	-tri-	4ee\	-tri-	.	.
.	.	.	16a/	.	16aa\	.	.	.	.	.	.	.	.	.
8A\	.	.	16g/	.	16bb\	.	.	.	.	.	.	.	.	.
.	.	.	16a/JJ	.	16aa\JJ	.	.	.	.	.	.	.	.	.
*	*	*	*rep	*	*	*	*	*	*	*	*	*	*	*
8B\	.	.	16e/LL	.	16gg#\LL	.	8B\L	-ar-	8d\L	-ar-	8ff#\L	-ar-	4e\	4g\
.	.	.	16a/	.	16aa\	.	.	.	.	.	.	.	.	.
8c#\J	.	.	16g/	.	16ee\	.	8c#\J	.	8e\J	.	8gg\J	.	.	.
.	.	.	16a/JJ	.	16ggn\JJ	.	.	.	.	.	.	.	.	.
*	*	*	*Xrep	*	*	*	*	*	*	*	*	*	*	*
!	!	!	!	!	!LO:LB:g=original	!	!	!	!	!	!	!	!LO:LB:g=original	!
=7	=7	=7	=7	=7	=7	=7	=7	=7	=7	=7	=7	=7	=7	=7
!LO:TX:t=P:problem=mixed beam	!	!	!	!	!	!	!	!	!	!	!	!	!	!
8d\L	.	.	4f#/	.	4ff# 4a 4d/	.	4d\	-cha-	4d\	-cha-	4ff#\	-cha-	4d\	4f#\
8D/J	.	.	.	.	.	.	.	.	.	.	.	.	.	.
*tremolo	*	*	*	*	*	*	*	*	*	*	*	*	*	*
8D\L	.	.	4dd 4f# 4A/	.	4ff# 4a 4d/	.	4D\	-rum	4d\	-rum	4ff#\	-rum	8D/L	8d\L
8D\	.	.	.	.	.	.	.	.	.	.	.	.	8D/	8d\
8D\	.	.	4dd 4f# 4A/	.	4ff# 4a 4d/	.	4r	.	4r	.	4r	.	8D/	8d\
8D\J	.	.	.	.	.	.	.	.	.	.	.	.	8D/J	8d\J
!LO:LB:g=original	!	!	!LO:LB:g=original	!	!	!	!LO:LB:g=original	!	!	!	!	!	!	!LO:LB:g=original
=8	=8	=8	=8	=8	=8	=8	=8	=8	=8	=8	=8	=8	=8	=8
8D\L	.	.	4dd 4f# 4A/	.	4ff# 4a 4d/	.	2.r	.	2.r	.	2.r	.	8D/L	8d\L
8d\	.	.	.	.	.	.	.	.	.	.	.	.	8D/	8d\
8D\	.	.	16d/LL	.	16d/LL	.	.	.	.	.	.	.	8D/	8d\
.	.	.	16c#/	.	16c#/	.	.	.	.	.	.	.	.	.
8d\	.	.	16d/	.	16d/	.	.	.	.	.	.	.	8D/	8d\
.	.	.	16c#/JJ	.	16c#/JJ	.	.	.	.	.	.	.	.	.
*	*	*	*rep	*	*rep	*	*	*	*	*	*	*	*	*
8D\	.	.	16d/LL	.	16d/LL	.	.	.	.	.	.	.	8D/	8d\
.	.	.	16c#/	.	16c#/	.	.	.	.	.	.	.	.	.
8d\J	.	.	16d/	.	16d/	.	.	.	.	.	.	.	8D/J	8d\J
.	.	.	16c#/JJ	.	16c#/JJ	.	.	.	.	.	.	.	.	.
*	*	*	*Xrep	*	*Xrep	*	*	*	*	*	*	*	*	*
!	!	!	!	!	!	!	!	!	!LO:LB:g=original	!	!LO:LB:g=original	!	!	!
=9	=9	=9	=9	=9	=9	=9	=9	=9	=9	=9	=9	=9	=9	=9
8D\L	3	.	4d/	.	4d/	.	4r	.	4r	.	4r	.	4D/	4d\
8d\	.	.	.	.	.	.	.	.	.	.	.	.	.	.
8D\	.	.	4dd 4f#/	.	4ff# 4a 4d/	.	4r	.	4r	.	4r	.	4r	4r
8d\	5 3	.	.	.	.	.	.	.	.	.	.	.	.	.
8D\	.	.	4ff# 4a/	.	4aa 4a/	.	4d\	Re-	4d\	Re-	4dd\	Re-	4r	4r
8d\J	.	.	.	.	.	.	.	.	.	.	.	.	.	.
=10	=10	=10	=10	=10	=10	=10	=10	=10	=10	=10	=10	=10	=10	=10
8D\L	6 4	.	4gg 4b 4d/	.	4bb 4dd 4d/	.	4d\	-gi-	4d\	-gi-	4dd\	-gi-	8D/L	8d\L
8d\	.	.	.	.	.	.	.	.	.	.	.	.	16D/L	16d\L
.	.	.	.	.	.	.	.	.	.	.	.	.	16D/JJ	16d\JJ
*	*	*	*	*	*	*	*	*	*	*	*	*	*tremolo	*tremolo
8D\	.	.	16d/LL	.	16d/LL	.	4D\	-na	4D/	-na	4d/	-na	8D/L	8d\L
.	.	.	16c#/	.	16c#/	.	.	.	.	.	.	.	.	.
8d\	.	.	16d/	.	16d/	.	.	.	.	.	.	.	8D/	8d\
.	.	.	16c#/JJ	.	16c#/JJ	.	.	.	.	.	.	.	.	.
*	*	*	*rep	*	*rep	*	*	*	*	*	*	*	*	*
8D\	.	.	16d/LL	.	16d/LL	.	4r	.	4r	.	4r	.	8D/	8d\
.	.	.	16c#/	.	16c#/	.	.	.	.	.	.	.	.	.
8d\J	.	.	16d/	.	16d/	.	.	.	.	.	.	.	8D/J	8d\J
.	.	.	16c#/JJ	.	16c#/JJ	.	.	.	.	.	.	.	.	.
*	*	*	*Xrep	*	*Xrep	*	*	*	*	*	*	*	*Xtremolo	*Xtremolo
=11	=11	=11	=11	=11	=11	=11	=11	=11	=11	=11	=11	=11	=11	=11
8D\L	4	.	4d/	.	4d/	.	4r	.	4r	.	4r	.	4D/	4d\
8d\	.	.	.	.	.	.	.	.	.	.	.	.	.	.
8D\	.	.	4b 4d/	.	4gg 4dd 4d/	.	4r	.	4r	.	4r	.	4r	4r
8d\	6 4	.	.	.	.	.	.	.	.	.	.	.	.	.
*	*	*	*	*	*	*	*	*ij	*	*ij	*	*ij	*	*
8D\	.	.	4gg 4b 4d/	.	4bb 4dd 4d/	.	4d\	Re-	4d\	Re-	4dd\	Re-	4r	4r
8d\J	.	.	.	.	.	.	.	.	.	.	.	.	.	.
=12	=12	=12	=12	=12	=12	=12	=12	=12	=12	=12	=12	=12	=12	=12
8D\L	5 3	.	4ff# 4a 4d/	.	4aa 4dd 4d/	.	4d\	-gi-	4d\	-gi-	4dd\	-gi-	8D/L	8d\L
8d\	.	.	.	.	.	.	.	.	.	.	.	.	16D/L	16d\L
.	.	.	.	.	.	.	.	.	.	.	.	.	16D/JJ	16d\JJ
*	*	*	*	*	*	*	*	*	*	*	*	*	*tremolo	*
8D\	.	.	16d/LL	.	16d/LL	.	4D\	-na	4D/	-na	4d/	-na	8D/L	8d\L
.	.	.	16c#/	.	16c#/	.	.	.	.	.	.	.	.	.
8d\	.	.	16d/	.	16d/	.	.	.	.	.	.	.	8D/	8d\
.	.	.	16c#/JJ	.	16c#/JJ	.	.	.	.	.	.	.	.	.
*	*	*	*rep	*	*rep	*	*	*	*	*	*	*	*	*
8D\	.	.	16d/LL	.	16d/LL	.	4r	.	4r	.	4r	.	8D/	8d\
.	.	.	16c#/	.	16c#/	.	.	.	.	.	.	.	.	.
8d\J	.	.	16d/	.	16d/	.	.	.	.	.	.	.	8D/J	8d\J
.	.	.	16c#/JJ	.	16c#/JJ	.	.	.	.	.	.	.	.	.
*	*	*	*Xrep	*	*Xrep	*	*	*	*	*	*	*	*Xtremolo	*
=13	=13	=13	=13	=13	=13	=13	=13	=13	=13	=13	=13	=13	=13	=13
8D\L	3	.	4d/	.	4d/	.	4r	.	4r	.	4r	.	4D/	4d\
8d\	.	.	.	.	.	.	.	.	.	.	.	.	.	.
8D\	.	.	4dd 4d/	.	4ff# 4a 4d/	.	4r	.	4r	.	4r	.	4r	4r
8d\	5 3	.	.	.	.	.	.	.	.	.	.	.	.	.
8D\	.	.	4ff# 4a 4d/	.	4aa 4a/	.	4d\	Re-	4d\	Re-	4ff#\	Re-	4r	4r
8d\J	.	.	.	.	.	.	.	.	.	.	.	.	.	.
*Xtremolo	*	*	*	*	*	*	*	*	*	*	*	*	*	*
=14	=14	=14	=14	=14	=14	=14	=14	=14	=14	=14	=14	=14	=14	=14
*	*	*	*tremolo	*	*	*	*	*	*	*	*	*	*	*
!LO:TX:t=P:problem=mixed beam	!	!	!	!	!	!	!	!	!	!	!	!	!	!
8AA/L	7 5	.	16cc#LL 16e/	.	4gg 4a/	.	2c#\	-gi-	2e\	-gi-	2gg\	-gi-	2.e\	2.g\
.	.	.	16cc# 16e/	.	.	.	.	.	.	.	.	.	.	.
8A\J	.	.	16cc# 16e/	.	.	.	.	.	.	.	.	.	.	.
.	.	.	16cc# 16e/	.	.	.	.	.	.	.	.	.	.	.
*tremolo	*	*	*	*	*	*	*	*	*	*	*	*	*	*
8A\L	.	.	16cc# 16e/	.	16gg\LL	.	.	.	.	.	.	.	.	.
.	.	.	16cc# 16e/	.	16aa\	.	.	.	.	.	.	.	.	.
8A\	.	.	16cc# 16e/	.	16bb\	.	.	.	.	.	.	.	.	.
.	.	.	16cc# 16e/	.	16aa\JJ	.	.	.	.	.	.	.	.	.
8A\	.	.	16cc# 16e/	.	16gg\LL	.	4c#\	-na	4e\	-na	4gg\	-na	.	.
*	*	*	*	*	*	*	*	*Xij	*	*Xij	*	*Xij	*	*
.	.	.	16cc# 16e/	.	16ff#\	.	.	.	.	.	.	.	.	.
8A\J	.	.	16cc# 16e/	.	16ee\	.	.	.	.	.	.	.	.	.
.	.	.	16cc#JJ 16e/	.	16dd\JJ	.	.	.	.	.	.	.	.	.
*Xtremolo	*	*	*	*	*	*	*	*	*	*	*	*	*	*
!	!	!	!	!	!LO:LB:g=original	!	!	!	!	!	!	!	!LO:LB:g=original	!
=15	=15	=15	=15	=15	=15	=15	=15	=15	=15	=15	=15	=15	=15	=15
*	*	*	*	*	*	*	*	*	*	*	*	*	*	*tremolo
!LO:TX:t=P:problem=mixed beam	!	!	!	!	!	!	!	!	!	!	!	!	!	!
8AA/L	.	.	16cc#LL 16e/	.	4cc#\	.	2c#\	pro-	2e\	pro-	2gg\	pro-	2.A/	8e\L
.	.	.	16cc# 16e/	.	.	.	.	.	.	.	.	.	.	.
8A\	.	.	16cc# 16e/	.	.	.	.	.	.	.	.	.	.	8e\
.	.	.	16cc# 16e/	.	.	.	.	.	.	.	.	.	.	.
8A\	.	.	16cc# 16e/	.	16cc#\LL	.	.	.	.	.	.	.	.	8e\
.	.	.	16cc# 16e/	.	16dd\	.	.	.	.	.	.	.	.	.
8A\J	.	.	16cc# 16e/	.	16ee\	.	.	.	.	.	.	.	.	8e\
.	.	.	16cc# 16e/	.	16dd\JJ	.	.	.	.	.	.	.	.	.
8B\L	.	.	16cc# 16e/	.	16cc#\LL	.	4c#\	-phe-	4e\	-phe-	4gg\	-phe-	.	8e\
.	.	.	16cc# 16e/	.	16b\	.	.	.	.	.	.	.	.	.
8c#\J	.	.	16cc# 16e/	.	16a\	.	.	.	.	.	.	.	.	8e\J
.	.	.	16cc#JJ 16e/	.	16g\JJ	.	.	.	.	.	.	.	.	.
*	*	*	*Xtremolo	*	*	*	*	*	*	*	*	*	*	*
=16	=16	=16	=16	=16	=16	=16	=16	=16	=16	=16	=16	=16	=16	=16
!LO:TX:t=P:problem=mixed beam	!	!	!	!	!	!	!	!	!	!	!	!	!LO:TX:t=P:problem=mixed beam	!
8d\L	.	.	4dd 4f# 4A/	.	4f#/	.	4d\	-ta-	4d\	-ta-	4ff#\	-ta-	8d\L	8d\L
8D/J	.	.	.	.	.	.	.	.	.	.	.	.	8D/J	8d\
*tremolo	*	*	*	*	*	*	*	*	*	*	*	*	*tremolo	*
8D\L	.	.	16d/LL	.	16d/LL	.	4D\	-rum	4d\	-rum	4ff#\	-rum	8D/L	8d\
.	.	.	16c#/	.	16c#/	.	.	.	.	.	.	.	.	.
8D\	.	.	16d/	.	16d/	.	.	.	.	.	.	.	8D/	8d\
.	.	.	16c#/JJ	.	16c#/JJ	.	.	.	.	.	.	.	.	.
*	*	*	*rep	*	*rep	*	*	*	*	*	*	*	*	*
8D\	.	.	16d/LL	.	16d/LL	.	4r	.	4r	.	4r	.	8D/	8d\
.	.	.	16c#/	.	16c#/	.	.	.	.	.	.	.	.	.
8D\J	.	.	16d/	.	16d/	.	.	.	.	.	.	.	8D/J	8d\J
!LO:TX:b:i:t=Verte Cito	!	!	!	!	!	!	!	!	!	!	!	!	!	!
.	.	.	16c#/JJ	.	16c#/JJ	.	.	.	.	.	.	.	.	.
*	*	*	*Xrep	*	*Xrep	*	*	*	*	*	*	*	*Xtremolo	*Xtremolo
!LO:PB:g=original	!	!	!	!	!	!	!LO:PB:g=original	!	!LO:PB:g=original	!	!	!	!	!
=17	=17	=17	=17	=17	=17	=17	=17	=17	=17	=17	=17	=17	=17	=17
8D\L	3	.	4d/	.	4d/	.	4r	.	4r	.	4r	.	4D/	4d\
8d\	.	.	.	.	.	.	.	.	.	.	.	.	.	.
8D\	.	.	4dd 4f#/	.	4ff# 4a 4d/	.	4r	.	4r	.	4r	.	4r	4r
8d\	5 3	.	.	.	.	.	.	.	.	.	.	.	.	.
8D\	.	.	4ff# 4a/	.	4aa 4a/	.	4d\	Re-	4d\	Re-	4dd\	Re-	4r	4r
8d\J	.	.	.	.	.	.	.	.	.	.	.	.	.	.
!	!	!	!LO:LB:g=original	!	!	!	!	!	!	!	!LO:LB:g=original	!	!	!LO:LB:g=original
=18	=18	=18	=18	=18	=18	=18	=18	=18	=18	=18	=18	=18	=18	=18
*	*	*	*	*	*	*	*	*	*	*	*	*	*tremolo	*tremolo
8D\L	6 4	.	4gg 4b 4d/	.	4bb 4dd 4d/	.	4d\	-gi-	4d\	-gi-	4dd\	-gi-	8D/L	8d\L
8d\	.	.	.	.	.	.	.	.	.	.	.	.	8D/	8d\
8D\	.	.	16d/LL	.	16d/LL	.	4D\	-na	4D/	-na	4d/	-na	8D/	8d\
.	.	.	16c#/	.	16c#/	.	.	.	.	.	.	.	.	.
8d\	.	.	16d/	.	16d/	.	.	.	.	.	.	.	8D/	8d\
.	.	.	16c#/JJ	.	16c#/JJ	.	.	.	.	.	.	.	.	.
*	*	*	*rep	*	*rep	*	*	*	*	*	*	*	*	*
8D\	.	.	16d/LL	.	16d/LL	.	4r	.	4r	.	4r	.	8D/	8d\
.	.	.	16c#/	.	16c#/	.	.	.	.	.	.	.	.	.
8d\J	.	.	16d/	.	16d/	.	.	.	.	.	.	.	8D/J	8d\J
.	.	.	16c#/JJ	.	16c#/JJ	.	.	.	.	.	.	.	.	.
*	*	*	*Xrep	*	*Xrep	*	*	*	*	*	*	*	*Xtremolo	*Xtremolo
=19	=19	=19	=19	=19	=19	=19	=19	=19	=19	=19	=19	=19	=19	=19
8D\L	4	.	4d/	.	4d/	.	4r	.	4r	.	4r	.	4D/	4d\
8d\	.	.	.	.	.	.	.	.	.	.	.	.	.	.
8D\	.	.	4b 4d/	.	4gg 4dd 4d/	.	4r	.	4r	.	4r	.	4r	4r
8d\	6 4	.	.	.	.	.	.	.	.	.	.	.	.	.
*	*	*	*	*	*	*	*	*ij	*	*ij	*	*ij	*	*
8D\	.	.	4gg 4b 4d/	.	4bb 4dd 4d/	.	4d\	Re-	4d\	Re-	4dd\	Re-	4r	4r
8d\J	.	.	.	.	.	.	.	.	.	.	.	.	.	.
=20	=20	=20	=20	=20	=20	=20	=20	=20	=20	=20	=20	=20	=20	=20
*	*	*	*	*	*	*	*	*	*	*	*	*	*tremolo	*tremolo
8D\L	5 3	.	4ff# 4a 4d/	.	4aa 4dd 4d/	.	4d\	-gi-	4d\	-gi-	4dd\	-gi-	8D/L	8d\L
8d\	.	.	.	.	.	.	.	.	.	.	.	.	8D/	8d\
8D\	.	.	16d/LL	.	16d/LL	.	4D\	-na	4D/	-na	4d/	-na	8D/	8d\
.	.	.	16c#/	.	16c#/	.	.	.	.	.	.	.	.	.
8d\	.	.	16d/	.	16d/	.	.	.	.	.	.	.	8D/	8d\
.	.	.	16c#/JJ	.	16c#/JJ	.	.	.	.	.	.	.	.	.
*	*	*	*rep	*	*rep	*	*	*	*	*	*	*	*	*
8D\	.	.	16d/LL	.	16d/LL	.	4r	.	4r	.	4r	.	8D/	8d\
.	.	.	16c#/	.	16c#/	.	.	.	.	.	.	.	.	.
8d\J	.	.	16d/	.	16d/	.	.	.	.	.	.	.	8D/J	8d\J
.	.	.	16c#/JJ	.	16c#/JJ	.	.	.	.	.	.	.	.	.
*	*	*	*Xrep	*	*Xrep	*	*	*	*	*	*	*	*Xtremolo	*Xtremolo
=21	=21	=21	=21	=21	=21	=21	=21	=21	=21	=21	=21	=21	=21	=21
8D\L	3	.	4d/	.	4d/	.	4r	.	4r	.	4r	.	4D/	4d\
8d\	.	.	.	.	.	.	.	.	.	.	.	.	.	.
8D\	.	.	4dd 4d/	.	4ff# 4a 4d/	.	4r	.	4r	.	4r	.	4r	4r
8d\	5 3	.	.	.	.	.	.	.	.	.	.	.	.	.
8D\	.	.	4ff# 4a 4d/	.	4aa 4a/	.	4d\	Re-	4d\	Re-	4ff#\	Re-	4r	4r
8d\J	.	.	.	.	.	.	.	.	.	.	.	.	.	.
*Xtremolo	*	*	*	*	*	*	*	*	*	*	*	*	*	*
=22	=22	=22	=22	=22	=22	=22	=22	=22	=22	=22	=22	=22	=22	=22
*	*	*	*tremolo	*	*	*	*	*	*	*	*	*	*	*
!LO:TX:t=P:problem=mixed beam	!	!	!	!	!	!	!	!	!	!	!	!	!	!
8AA/L	7 5	.	16cc#LL 16e/	.	4gg 4a/	.	2c#\	-gi-	2e\	-gi-	2gg\	-gi-	2.e\	2.g\
.	.	.	16cc# 16e/	.	.	.	.	.	.	.	.	.	.	.
8A\J	.	.	16cc# 16e/	.	.	.	.	.	.	.	.	.	.	.
.	.	.	16cc# 16e/	.	.	.	.	.	.	.	.	.	.	.
*tremolo	*	*	*	*	*	*	*	*	*	*	*	*	*	*
8A\L	.	.	16cc# 16e/	.	16gg\LL	.	.	.	.	.	.	.	.	.
.	.	.	16cc# 16e/	.	16aa\	.	.	.	.	.	.	.	.	.
8A\	.	.	16cc# 16e/	.	16bb\	.	.	.	.	.	.	.	.	.
.	.	.	16cc# 16e/	.	16aa\JJ	.	.	.	.	.	.	.	.	.
!	!	!	!	!	!LO:LB:g=original	!	!	!	!	!	!	!	!	!
8A\	.	.	16cc# 16e/	.	16gg\LL	.	4c#\	-na	4e\	-na	4gg\	-na	.	.
*	*	*	*	*	*	*	*	*Xij	*	*Xij	*	*Xij	*	*
.	.	.	16cc# 16e/	.	16ff#\	.	.	.	.	.	.	.	.	.
8A\J	.	.	16cc# 16e/	.	16ee\	.	.	.	.	.	.	.	.	.
.	.	.	16cc#JJ 16e/	.	16dd\JJ	.	.	.	.	.	.	.	.	.
*Xtremolo	*	*	*	*	*	*	*	*	*	*	*	*	*	*
=23	=23	=23	=23	=23	=23	=23	=23	=23	=23	=23	=23	=23	=23	=23
!LO:TX:t=P:problem=mixed beam	!	!	!	!	!	!	!	!	!	!	!	!	!	!
8AA/L	.	.	16cc#LL 16e/	.	4cc#\	.	4c#\	a-	4e\	a-	2gg\	pro-	2.A/	2.e\
.	.	.	16cc# 16e/	.	.	.	.	.	.	.	.	.	.	.
8A\	.	.	16cc# 16e/	.	.	.	.	.	.	.	.	.	.	.
.	.	.	16cc# 16e/	.	.	.	.	.	.	.	.	.	.	.
8A\	.	.	16cc# 16e/	.	16cc#\LL	.	4c#\	-po-	4e\	-po-	.	.	.	.
.	.	.	16cc# 16e/	.	16dd\	.	.	.	.	.	.	.	.	.
8A\	.	.	16cc# 16e/	.	16ee\	.	.	.	.	.	.	.	.	.
.	.	.	16cc# 16e/	.	16dd\JJ	.	.	.	.	.	.	.	.	.
8B\	.	.	16cc# 16e/	.	16cc#\LL	.	4c#\	-sto-	4e\	-sto-	4gg\	-phe-	.	.
.	.	.	16cc# 16e/	.	16b\	.	.	.	.	.	.	.	.	.
8c#\J	.	.	16cc# 16e/	.	16a\	.	.	.	.	.	.	.	.	.
.	.	.	16cc#JJ 16e/	.	16g\JJ	.	.	.	.	.	.	.	.	.
*	*	*	*Xtremolo	*	*	*	*	*	*	*	*	*	*	*
=24	=24	=24	=24	=24	=24	=24	=24	=24	=24	=24	=24	=24	=24	=24
4d\	.	.	4dd 4f# 4A/	.	4f#/	.	4d\	-lo-	4d\	-lo-	4ff#\	-ta-	4F#/	4d\
4D/	.	.	4dd 4f# 4A/	.	4ff# 4a 4d/	.	4D/	-rum	4d\	-rum	4ff#\	-rum	4d\	4f#\
4D/	.	.	4dd 4f# 4A/	.	4ff# 4a 4d/	.	4r	.	4r	.	4r	.	4d\	4f#\
!LO:LB:g=original	!	!	!	!	!	!	!	!	!	!	!	!	!	!
=25	=25	=25	=25	=25	=25	=25	=25	=25	=25	=25	=25	=25	=25	=25
4D/	.	.	4dd 4f# 4A/	.	4ff# 4a 4d/	.	2.r	.	2.r	.	2.r	.	4d\	4f#\
4r	.	.	4r	.	4r	.	.	.	.	.	.	.	4r	4r
4r	.	.	4r	.	4r	.	.	.	.	.	.	.	4r	4r
!	!	!	!	!	!	!	!LO:LB:g=original	!	!LO:LB:g=original	!	!	!	!LO:LB:g=original	!
=26	=26	=26	=26	=26	=26	=26	=26	=26	=26	=26	=26	=26	=26	=26
!LO:TX:t=P:problem=mixed beam	!	!	!	!	!	!	!	!	!	!	!	!	!	!
8EE/L	8 6	.	4r	.	4r	.	4E\	O-	4c#\	O-	4ee\	O-	4e\	4e\
8E\J	.	.	.	.	.	.	.	.	.	.	.	.	.	.
*tremolo	*	*	*	*	*	*	*	*	*	*	*	*	*	*
8E\L	.	.	4e 4A/	.	4cc# 4e/	.	4E\	-ra	4c#\	-ra	4ee\	-ra	4r	4r
8E\	.	.	.	.	.	.	.	.	.	.	.	.	.	.
8E\	.	.	4a 4e 4A/	.	4aa 4cc# 4e/	.	4E\	pro	4c#\	pro	4ee\	pro	4r	4r
8E\J	.	.	.	.	.	.	.	.	.	.	.	.	.	.
*Xtremolo	*	*	*	*	*	*	*	*	*	*	*	*	*	*
=27	=27	=27	=27	=27	=27	=27	=27	=27	=27	=27	=27	=27	=27	=27
!LO:TX:t=P:problem=mixed beam	!	!	!	!	!	!	!	!	!	!	!	!	!	!
8EE/L	.	.	4r	.	4r	.	2E\	no-	2B\	no-	2dd\	no-	4e\	4e\
8E\J	7 5	.	.	.	.	.	.	.	.	.	.	.	.	.
*tremolo	*	*	*	*	*	*	*	*	*	*	*	*	*	*
8E\L	.	.	4b 4e/	.	4dd 4d\	.	.	.	.	.	.	.	4r	4r
8E\	.	.	.	.	.	.	.	.	.	.	.	.	.	.
8E\	.	.	4dd 4e/	.	4bb 4dd 4d\	.	4E\	-bis	4G#X/	-bis	4b\	-bis	4r	4r
8E\J	.	.	.	.	.	.	.	.	.	.	.	.	.	.
*Xtremolo	*	*	*	*	*	*	*	*	*	*	*	*	*	*
!	!	!	!	!	!	!	!	!	!	!	!LO:LB:g=original	!	!	!
=28	=28	=28	=28	=28	=28	=28	=28	=28	=28	=28	=28	=28	=28	=28
*	*	*	*	*	*	*	*	*ij	*	*ij	*	*ij	*	*
!LO:TX:t=P:problem=mixed beam	!	!	!	!	!	!	!	!	!	!	!	!	!	!
8EE/L	.	.	4r	.	4r	.	4E\	O-	4A\	O-	4cc#\	O-	4e\	4e\
8E\J	6 4	.	.	.	.	.	.	.	.	.	.	.	.	.
*tremolo	*	*	*	*	*	*	*	*	*	*	*	*	*	*
8E\L	7 5	.	4e 4A/	.	4cc# 4e\	.	4E\	-ra	4A\	-ra	4cc#\	-ra	4r	4r
8E\	.	.	.	.	.	.	.	.	.	.	.	.	.	.
8E\	6 4	.	4cc# 4e 4A/	.	4aa 4cc# 4e\	.	4E\	pro	8B\L	pro	8dd\L	pro	4r	4r
8E\J	.	.	.	.	.	.	.	.	8A\J	.	8cc#\J	.	.	.
*Xtremolo	*	*	*	*	*	*	*	*	*	*	*	*	*	*
!	!	!	!LO:LB:g=original	!	!	!	!	!	!	!	!	!	!	!
=29	=29	=29	=29	=29	=29	=29	=29	=29	=29	=29	=29	=29	=29	=29
!LO:TX:t=P:problem=mixed beam	!	!	!	!	!	!	!	!	!	!	!	!	!	!
8EE/L	.	.	16b\LL	.	16gg#X\LL	.	4E\	no-	8A/L	no-	8cc#\L	no-	4e\	4e\
.	.	.	16ee\	.	16ee\	.	.	.	.	.	.	.	.	.
8E\J	5 #	.	16dd#X\	.	16dd#X\	.	.	.	8G#X/J	.	8b\J	.	.	.
.	.	.	16ee\JJ	.	16ee\JJ	.	.	.	.	.	.	.	.	.
*tremolo	*	*	*	*	*	*	*	*	*	*	*	*	*	*
8E\L	6\ 4\	.	16dd#\LL	.	16dd#\LL	.	4E\	-bis	4G#/	-bis	4b\	-bis	4r	4r
.	.	.	16ee\	.	16ee\	.	.	.	.	.	.	.	.	.
8E\	.	.	16b\	.	16b\	.	.	.	.	.	.	.	.	.
.	.	.	16g#X\JJ	.	16g#X\JJ	.	.	.	.	.	.	.	.	.
8E\	.	.	4e/	.	4e/	.	4r	.	4r	.	4r	.	4r	4r
8E\J	.	.	.	.	.	.	.	.	.	.	.	.	.	.
*Xtremolo	*	*	*	*	*	*	*	*	*	*	*	*	*	*
!	!	!	!	!	!	!	!	!	!	!	!	!	!	!LO:LB:g=original
=30	=30	=30	=30	=30	=30	=30	=30	=30	=30	=30	=30	=30	=30	=30
!LO:TX:t=P:problem=mixed beam	!	!	!	!	!	!	!	!	!	!	!	!	!	!
8EE/L	.	.	4r	.	4r	.	4c#\	O-	4e\	O-	4ee\	O-	4e\	4e\
8E\J	8 6	.	.	.	.	.	.	.	.	.	.	.	.	.
*tremolo	*	*	*	*	*	*	*	*	*	*	*	*	*	*
8E\L	.	.	4e 4A/	.	4cc# 4e\	.	4c#\	-ra	4e\	-ra	4ee\	-ra	4r	4r
8E\	.	.	.	.	.	.	.	.	.	.	.	.	.	.
8E\	.	.	4a 4e 4A/	.	4aa 4cc# 4e\	.	4c#\	pro	4e\	pro	4ee\	pro	4r	4r
8E\J	.	.	.	.	.	.	.	.	.	.	.	.	.	.
*Xtremolo	*	*	*	*	*	*	*	*	*	*	*	*	*	*
!	!	!	!	!	!LO:LB:g=original	!	!	!	!	!	!	!	!	!
=31	=31	=31	=31	=31	=31	=31	=31	=31	=31	=31	=31	=31	=31	=31
!LO:TX:t=P:problem=mixed beam	!	!	!	!	!	!	!	!	!	!	!	!	!	!
8EE/L	.	.	4r	.	4r	.	2B\	no-	2d\	no-	2ee\	no-	4e\	4e\
8E\J	5 7	.	.	.	.	.	.	.	.	.	.	.	.	.
*tremolo	*	*	*	*	*	*	*	*	*	*	*	*	*	*
8E\L	.	.	4b 4e/	.	4dd 4d\	.	.	.	.	.	.	.	4r	4r
8E\	.	.	.	.	.	.	.	.	.	.	.	.	.	.
8E\	.	.	4dd 4e/	.	4bb 4dd 4d\	.	4G#X\	-bis	4B\	-bis	4ee\	-bis	4r	4r
*	*	*	*	*	*	*	*	*Xij	*	*Xij	*	*	*	*
8E\J	.	.	.	.	.	.	.	.	.	.	.	.	.	.
*Xtremolo	*	*	*	*	*	*	*	*	*	*	*	*	*	*
=32	=32	=32	=32	=32	=32	=32	=32	=32	=32	=32	=32	=32	=32	=32
!LO:TX:t=P:problem=mixed beam	!	!	!	!	!	!	!	!	!	!	!	!	!	!
8EE/L	6 4	.	4r	.	4r	.	4A\	O-	4c#\	O-	4ee\	O-	4e\	4e\
8E\J	.	.	.	.	.	.	.	.	.	.	.	.	.	.
.	.	.	.	.	.	.	.	.	16qqd/	.	.	.	.	.
*tremolo	*	*	*	*	*	*	*	*	*	*	*	*	*	*
8E\L	7 5	.	4e 4A/	.	4cc# 4e\	.	8A\L	.	8c#\L	.	4ee\	-ra	4r	4r
8E\	.	.	.	.	.	.	16G#X\L	.	16B\L	.	.	.	.	.
.	.	.	.	.	.	.	16A\JJ	.	16c#\JJ	.	.	.	.	.
8E\	6 4	.	4cc# 4e 4A/	.	4aa 4cc# 4e\	.	8B\	-ra	8d\	-ra	4ee\	pro	4r	4r
8E\J	.	.	.	.	.	.	8A\	pro	8c#\	pro	.	.	.	.
*Xtremolo	*	*	*	*	*	*	*	*	*	*	*	*	*	*
!	!	!	!	!	!	!	!LO:LB:g=original	!	!LO:LB:g=original	!	!	!	!	!
=33	=33	=33	=33	=33	=33	=33	=33	=33	=33	=33	=33	=33	=33	=33
8EE/L	5 #	.	16b\LL	.	16gg#X\LL	.	4A\	no-	4c#\	no-	4ee\	no-	4e\	4e\
.	.	.	16ee\	.	16ee\	.	.	.	.	.	.	.	.	.
8E/	.	.	16dd#X\	.	16dd#X\	.	.	.	.	.	.	.	.	.
.	.	.	16ee\JJ	.	16ee\JJ	.	.	.	.	.	.	.	.	.
8BB/	.	.	16dd#\LL	.	16dd#\LL	.	4G#X\	-bis	4B\	-bis	4ee\	-bis	4r	4r
.	.	.	16ee\	.	16ee\	.	.	.	.	.	.	.	.	.
8GG#X/J	.	.	16b\	.	16b\	.	.	.	.	.	.	.	.	.
.	.	.	16g#X\JJ	.	16g#X\JJ	.	.	.	.	.	.	.	.	.
4EE/	.	.	4e/	.	4e/	.	4r	.	4r	.	4r	.	4r	4r
!LO:LB:g=original	!	!	!	!	!	!	!	!	!	!	!	!	!	!
=34	=34	=34	=34	=34	=34	=34	=34	=34	=34	=34	=34	=34	=34	=34
*tremolo	*	*	*tremolo	*	*	*	*	*ij	*	*ij	*	*	*	*
!	!	!	!	!	!	!	!	!	!	!	!	!	!LO:TX:a:t=54	!LO:TX:a:t=54
8G#X\L	7 5 3	.	16ddLL 16e/	.	4ff# 4b 4d/	.	4G#X\	O-	4d\	O-	4ff#\	O-	0.r	0.r
.	.	.	16dd 16e/	.	.	.	.	.	.	.	.	.	.	.
8G#\	.	.	16dd 16e/	.	.	.	.	.	.	.	.	.	.	.
.	.	.	16dd 16e/	.	.	.	.	.	.	.	.	.	.	.
8G#\	.	.	16dd 16e/	.	4ff# 4b 4d/	.	4G#\	-ra	4d\	-ra	4ff#\	-ra	.	.
.	.	.	16dd 16e/	.	.	.	.	.	.	.	.	.	.	.
8G#\	.	.	16dd 16e/	.	.	.	.	.	.	.	.	.	.	.
.	.	.	16dd 16e/	.	.	.	.	.	.	.	.	.	.	.
8G#\	.	.	16dd 16e/	.	4ff# 4b 4d/	.	4G#\	pro	4d\	pro	4ff#\	pro	.	.
.	.	.	16dd 16e/	.	.	.	.	.	.	.	.	.	.	.
8G#\J	.	.	16dd 16e/	.	.	.	.	.	.	.	.	.	.	.
.	.	.	16ddJJ 16e/	.	.	.	.	.	.	.	.	.	.	.
=35	=35	=35	=35	=35	=35	=35	=35	=35	=35	=35	=35	=35	=35	=35
8A\L	5 3	.	16cc#LL 16e/	.	4ee\	.	2A\	no-	2c#\	no-	2ee\	no-	.	.
.	.	.	16cc# 16e/	.	.	.	.	.	.	.	.	.	.	.
8A\	.	.	16cc# 16e/	.	.	.	.	.	.	.	.	.	.	.
.	.	.	16cc# 16e/	.	.	.	.	.	.	.	.	.	.	.
8A\	.	.	16cc# 16e/	.	16dd#X\LL	.	.	.	.	.	.	.	.	.
.	.	.	16cc# 16e/	.	16ee\	.	.	.	.	.	.	.	.	.
8A\	.	.	16cc# 16e/	.	16ff#\	.	.	.	.	.	.	.	.	.
.	.	.	16cc# 16e/	.	16ee\JJ	.	.	.	.	.	.	.	.	.
8A\	.	.	16cc# 16e/	.	16dd#\LL	.	4A\	-bis	4c#\	-bis	4ee\	-bis	.	.
.	.	.	16cc# 16e/	.	16cc#\	.	.	.	.	.	.	.	.	.
8A\J	.	.	16cc# 16e/	.	16b\	.	.	.	.	.	.	.	.	.
.	.	.	16cc#JJ 16e/	.	16a\JJ	.	.	.	.	.	.	.	.	.
=36	=36	=36	=36	=36	=36	=36	=36	=36	=36	=36	=36	=36	=36	=36
8d\L	6 3	.	16g#X/LL	.	4ff# 4b\	.	4d\	O-	4G#X/	O-	4ff#\	O-	.	.
.	.	.	16g#/	.	.	.	.	.	.	.	.	.	.	.
8d\	.	.	16g#/	.	.	.	.	.	.	.	.	.	.	.
.	.	.	16g#/	.	.	.	.	.	.	.	.	.	.	.
8d\	.	.	16g#/	.	4ff# 4b\	.	4d\	-ra	4G#/	-ra	4ff#\	-ra	.	.
.	.	.	16g#/	.	.	.	.	.	.	.	.	.	.	.
8d\	.	.	16g#/	.	.	.	.	.	.	.	.	.	.	.
.	.	.	16g#/	.	.	.	.	.	.	.	.	.	.	.
8d\	.	.	16g#/	.	4ff# 4b\	.	4d\	pro	4G#/	pro	4ff#\	pro	.	.
.	.	.	16g#/	.	.	.	.	.	.	.	.	.	.	.
8d\J	.	.	16g#/	.	.	.	.	.	.	.	.	.	.	.
.	.	.	16g#/JJ	.	.	.	.	.	.	.	.	.	.	.
=37	=37	=37	=37	=37	=37	=37	=37	=37	=37	=37	=37	=37	=37	=37
8c#\L	6 3	.	16aLL 16e/	.	4ee\	.	2c#\	no-	2A\	no-	2ee\	no-	.	.
.	.	.	16a 16e/	.	.	.	.	.	.	.	.	.	.	.
8c#\	.	.	16a 16e/	.	.	.	.	.	.	.	.	.	.	.
.	.	.	16a 16e/	.	.	.	.	.	.	.	.	.	.	.
8c#\	.	.	16a 16e/	.	16dd#X\LL	.	.	.	.	.	.	.	.	.
.	.	.	16a 16e/	.	16ee\	.	.	.	.	.	.	.	.	.
8c#\	.	.	16a 16e/	.	16ff#\	.	.	.	.	.	.	.	.	.
.	.	.	16a 16e/	.	16ee\JJ	.	.	.	.	.	.	.	.	.
8c#\	.	.	16a 16e/	.	16ddn\LL	.	4c#\	-bis	4A\	-bis	4cc#\	-bis	.	.
*	*	*	*	*	*	*	*	*Xij	*	*Xij	*	*Xij	*	*
.	.	.	16a 16e/	.	16cc#\	.	.	.	.	.	.	.	.	.
8c#\J	.	.	16a 16e/	.	16b\	.	.	.	.	.	.	.	.	.
.	.	.	16aJJ 16e/	.	16a\JJ	.	.	.	.	.	.	.	.	.
*Xtremolo	*	*	*Xtremolo	*	*	*	*	*	*	*	*	*	*	*
!	!	!	!	!	!	!	!	!	!	!	!LO:LB:g=original	!	!	!
=38	=38	=38	=38	=38	=38	=38	=38	=38	=38	=38	=38	=38	=38	=38
!LO:TX:t=P:problem=mixed beam	!	!	!	!	!	!	!	!	!	!	!	!	!	!
8d\L	3	.	16e/LL	.	16cc#\LL	.	4d\	pro	16F#/LL	pro	8cc#\L	pro	0.r	0.r
.	.	.	16d/	.	16b\	.	.	.	16G/	.	.	.	.	.
8d\	.	.	16f#/	.	16dd\	.	.	.	16A/	.	8b\J	.	.	.
.	.	.	16d/JJ	.	16b\JJ	.	.	.	16B/JJ	.	.	.	.	.
*	*	*	*tremolo	*	*	*	*	*	*	*	*	*	*	*
!	!	!	!	!	!LO:LB:g=original	!	!	!	!	!	!	!	!	!
8e\	4	.	16c#/LL	.	4a\	.	4e\	no-	4c#\	no-	4a\	no-	.	.
.	.	.	16c#/	.	.	.	.	.	.	.	.	.	.	.
8e\	.	.	16c#/	.	.	.	.	.	.	.	.	.	.	.
.	.	.	16c#/JJ	.	.	.	.	.	.	.	.	.	.	.
8E/	#	.	16B/LL	.	4g#X\	.	4E\	.	4B\	.	4g#X\	.	.	.
.	.	.	16B/	.	.	.	.	.	.	.	.	.	.	.
8E/J	.	.	16B/	.	.	.	.	.	.	.	.	.	.	.
.	.	.	16B/JJ	.	.	.	.	.	.	.	.	.	.	.
*	*	*	*Xtremolo	*	*	*	*	*	*	*	*	*	*	*
=39	=39	=39	=39	=39	=39	=39	=39	=39	=39	=39	=39	=39	=39	=39
4A\	.	.	16c#/LL	.	16a/LL	.	4A\	-bis	4A\	-bis	4a\	-bis	.	.
.	.	.	16e/	.	16e/	.	.	.	.	.	.	.	.	.
.	.	.	16f#/	.	16f#/	.	.	.	.	.	.	.	.	.
.	.	.	16g#X/JJ	.	16g#X/JJ	.	.	.	.	.	.	.	.	.
4AA/	.	.	16a\LL	.	16a\LL	.	4r	.	4r	.	4r	.	.	.
.	.	.	16b\	.	16b\	.	.	.	.	.	.	.	.	.
.	.	.	16cc#\	.	16cc#\	.	.	.	.	.	.	.	.	.
.	.	.	16dd\JJ	.	16dd\JJ	.	.	.	.	.	.	.	.	.
4r	.	.	16ee\LL	.	16ee\LL	.	4r	.	4r	.	4r	.	.	.
.	.	.	16ff#\	.	16ff#\	.	.	.	.	.	.	.	.	.
.	.	.	16gg#X\	.	16gg#X\	.	.	.	.	.	.	.	.	.
.	.	.	16aa\JJ	.	16aa\JJ	.	.	.	.	.	.	.	.	.
=40	=40	=40	=40	=40	=40	=40	=40	=40	=40	=40	=40	=40	=40	=40
*tremolo	*	*	*tremolo	*	*	*	*	*	*	*	*	*	*	*
!	!	!	!	!	!	!	!	!	!	!	!LO:TX:a:t=47	!	!	!
8G#X\L	7 5 3	.	16ddLL 16e/	.	4ff# 4b\	.	0.r	.	0.r	.	2.r	.	.	.
.	.	.	16dd 16e/	.	.	.	.	.	.	.	.	.	.	.
8G#\	.	.	16dd 16e/	.	.	.	.	.	.	.	.	.	.	.
.	.	.	16dd 16e/	.	.	.	.	.	.	.	.	.	.	.
8G#\	.	.	16dd 16e/	.	16ff#\LL	.	.	.	.	.	.	.	.	.
.	.	.	16dd 16e/	.	16gg#X\	.	.	.	.	.	.	.	.	.
8G#\	.	.	16dd 16e/	.	16aa\	.	.	.	.	.	.	.	.	.
.	.	.	16dd 16e/	.	16gg#\JJ	.	.	.	.	.	.	.	.	.
8G#\	.	.	16dd 16e/	.	16bb\LL	.	.	.	.	.	.	.	.	.
.	.	.	16dd 16e/	.	16aa\	.	.	.	.	.	.	.	.	.
8G#\J	.	.	16dd 16e/	.	16gg#\	.	.	.	.	.	.	.	.	.
.	.	.	16ddJJ 16e/	.	16ff#\JJ	.	.	.	.	.	.	.	.	.
=41	=41	=41	=41	=41	=41	=41	=41	=41	=41	=41	=41	=41	=41	=41
8A\L	5 3	.	16cc#LL 16e/	.	8ff#\L	.	.	.	.	.	2.r	.	.	.
.	.	.	16cc# 16e/	.	.	.	.	.	.	.	.	.	.	.
8A\	.	.	16cc# 16e/	.	8ee\J	.	.	.	.	.	.	.	.	.
.	.	.	16cc# 16e/	.	.	.	.	.	.	.	.	.	.	.
8A\	.	.	16cc# 16e/	.	4.ee\	.	.	.	.	.	.	.	.	.
.	.	.	16cc# 16e/	.	.	.	.	.	.	.	.	.	.	.
8A\	.	.	16cc# 16e/	.	.	.	.	.	.	.	.	.	.	.
.	.	.	16cc# 16e/	.	.	.	.	.	.	.	.	.	.	.
8A\	.	.	16cc# 16e/	.	.	.	.	.	.	.	.	.	.	.
.	.	.	16cc# 16e/	.	.	.	.	.	.	.	.	.	.	.
8A\J	.	.	16cc# 16e/	.	16cc#\LL	.	.	.	.	.	.	.	.	.
.	.	.	16cc#JJ 16e/	.	16a\JJ	.	.	.	.	.	.	.	.	.
=42	=42	=42	=42	=42	=42	=42	=42	=42	=42	=42	=42	=42	=42	=42
8d\L	6 3	.	16g#X/LL	.	4ff# 4b\	.	.	.	.	.	2.r	.	0.r	0.r
.	.	.	16g#/	.	.	.	.	.	.	.	.	.	.	.
8d\	.	.	16g#/	.	.	.	.	.	.	.	.	.	.	.
.	.	.	16g#/	.	.	.	.	.	.	.	.	.	.	.
8d\	.	.	16g#/	.	16ff#\LL	.	.	.	.	.	.	.	.	.
.	.	.	16g#/	.	16gg#X\	.	.	.	.	.	.	.	.	.
8d\	.	.	16g#/	.	16aa\	.	.	.	.	.	.	.	.	.
.	.	.	16g#/	.	16gg#\JJ	.	.	.	.	.	.	.	.	.
8d\	.	.	16g#/	.	16bb\LL	.	.	.	.	.	.	.	.	.
.	.	.	16g#/	.	16aa\	.	.	.	.	.	.	.	.	.
8d\J	.	.	16g#/	.	16gg#\	.	.	.	.	.	.	.	.	.
.	.	.	16g#/JJ	.	16ff#\JJ	.	.	.	.	.	.	.	.	.
=43	=43	=43	=43	=43	=43	=43	=43	=43	=43	=43	=43	=43	=43	=43
8c#\L	6 3	.	16aLL 16e/	.	8ff#\L	.	.	.	.	.	2.r	.	.	.
.	.	.	16a 16e/	.	.	.	.	.	.	.	.	.	.	.
8c#\	.	.	16a 16e/	.	8ee\J	.	.	.	.	.	.	.	.	.
.	.	.	16a 16e/	.	.	.	.	.	.	.	.	.	.	.
8c#\	.	.	16a 16e/	.	4.ee\	.	.	.	.	.	.	.	.	.
.	.	.	16a 16e/	.	.	.	.	.	.	.	.	.	.	.
8c#\	.	.	16a 16e/	.	.	.	.	.	.	.	.	.	.	.
.	.	.	16a 16e/	.	.	.	.	.	.	.	.	.	.	.
8c#\	.	.	16a 16e/	.	.	.	.	.	.	.	.	.	.	.
.	.	.	16a 16e/	.	.	.	.	.	.	.	.	.	.	.
8c#\J	.	.	16a 16e/	.	16dd\LL	.	.	.	.	.	.	.	.	.
.	.	.	16aJJ 16e/	.	16cc#\JJ	.	.	.	.	.	.	.	.	.
*Xtremolo	*	*	*	*	*	*	*	*	*	*	*	*	*	*
=44	=44	=44	=44	=44	=44	=44	=44	=44	=44	=44	=44	=44	=44	=44
!LO:TX:t=P:problem=mixed beam	!	!	!	!	!	!	!	!	!	!	!	!	!	!
8d\L	3	.	16f#/LL	.	16cc#\LL	.	0.r	.	1.r	.	2.r	.	.	.
.	.	.	16f#/	.	16b\	.	.	.	.	.	.	.	.	.
8d\	.	.	16f#/	.	16dd\	.	.	.	.	.	.	.	.	.
.	.	.	16f#/JJ	.	16ff#\JJ	.	.	.	.	.	.	.	.	.
!	!	!	!	!	!LO:LB:g=original	!	!	!	!	!	!	!	!	!
8e\	4	.	16c#/LL	.	4a\	.	.	.	.	.	.	.	.	.
.	.	.	16c#/	.	.	.	.	.	.	.	.	.	.	.
8e\	.	.	16c#/	.	.	.	.	.	.	.	.	.	.	.
.	.	.	16c#/JJ	.	.	.	.	.	.	.	.	.	.	.
8E/	3	.	16d/LL	.	4b\	.	.	.	.	.	.	.	.	.
.	.	.	16d/	.	.	.	.	.	.	.	.	.	.	.
8E/J	#	.	16d/	.	.	.	.	.	.	.	.	.	.	.
.	.	.	16d/JJ	.	.	.	.	.	.	.	.	.	.	.
*	*	*	*Xtremolo	*	*	*	*	*	*	*	*	*	*	*
!LO:LB:g=original	!	!	!	!	!	!	!	!	!	!	!	!	!	!
=45	=45	=45	=45	=45	=45	=45	=45	=45	=45	=45	=45	=45	=45	=45
4A\	.	.	8c#/L	.	8a/L	.	.	.	.	.	2.r	.	.	.
.	.	.	16e/L	.	16e/L	.	.	.	.	.	.	.	.	.
.	.	.	16c#/JJ	.	16c#/JJ	.	.	.	.	.	.	.	.	.
4AA/	.	.	4A/	.	4A/	.	.	.	.	.	.	.	.	.
4r	.	.	4r	.	4r	.	.	.	.	.	.	.	.	.
!	!	!	!	!	!	!	!	!	!LO:LB:g=original	!	!	!	!	!
=46	=46	=46	=46	=46	=46	=46	=46	=46	=46	=46	=46	=46	=46	=46
*tremolo	*	*	*tremolo	*	*	*	*	*	*	*	*	*	*	*
!	!	!	!	!LO:DY:rj	!	!LO:DY:rj	!	!	!	!	!	!	!	!
8A\L	.	p	8c#/L	p	4a/	p	.	.	4A\	Re-	2.r	.	0.r	0.r
8A\	.	.	8e/	.	.	.	.	.	.	.	.	.	.	.
8A\	.	.	8c#/	.	4a/	.	.	.	4A\	-gi-	.	.	.	.
8A\	.	.	8e/	.	.	.	.	.	.	.	.	.	.	.
8A\	.	.	8c#/	.	4a/	.	.	.	4A\	-na	.	.	.	.
8A\J	.	.	8e/J	.	.	.	.	.	.	.	.	.	.	.
=47	=47	=47	=47	=47	=47	=47	=47	=47	=47	=47	=47	=47	=47	=47
8D\L	3	.	8d/L	.	2b/	.	.	.	2B\	Mar-	2.r	.	.	.
8D\	.	.	8e/	.	.	.	.	.	.	.	.	.	.	.
8D\	.	.	8d/	.	.	.	.	.	.	.	.	.	.	.
8D\J	.	.	8e/	.	.	.	.	.	.	.	.	.	.	.
*Xtremolo	*	*	*	*	*	*	*	*	*	*	*	*	*	*
8E\L	#	.	8d/	.	4g#X/	.	.	.	4G#X\	-ti-	.	.	.	.
8E\J	.	.	8e/J	.	.	.	.	.	.	.	.	.	.	.
*	*	*	*Xtremolo	*	*	*	*	*	*	*	*	*	*	*
=48	=48	=48	=48	=48	=48	=48	=48	=48	=48	=48	=48	=48	=48	=48
!	!	!	!	!LO:DY:rj	!	!	!	!	!	!	!	!	!	!
4A\	.	.	16c#/LL	f	16a/LL	f	2.r	.	4A\	-rum	2.r	.	.	.
.	.	.	16e/	.	16e/	.	.	.	.	.	.	.	.	.
.	.	.	16f#/	.	16f#/	.	.	.	.	.	.	.	.	.
.	.	.	16g#X/JJ	.	16g#X/JJ	.	.	.	.	.	.	.	.	.
4AA/	.	.	16a\LL	.	16a\LL	.	.	.	4r	.	.	.	.	.
.	.	.	16b\	.	16b\	.	.	.	.	.	.	.	.	.
.	.	.	16cc#\	.	16cc#\	.	.	.	.	.	.	.	.	.
.	.	.	16dd\JJ	.	16dd\JJ	.	.	.	.	.	.	.	.	.
!	!	!	!LO:LB:g=original	!	!	!	!	!	!	!	!	!	!	!
4r	.	.	16ee\LL	.	16ee\LL	.	.	.	4r	.	.	.	.	.
.	.	.	16dd\	.	16dd\	.	.	.	.	.	.	.	.	.
.	.	.	16b\	.	16b\	.	.	.	.	.	.	.	.	.
.	.	.	16g#X\JJ	.	16g#X\JJ	.	.	.	.	.	.	.	.	.
=49	=49	=49	=49	=49	=49	=49	=49	=49	=49	=49	=49	=49	=49	=49
*tremolo	*	*	*tremolo	*	*	*	*	*	*	*ij	*	*	*	*
!	!	!	!	!LO:DY:rj	!	!	!LO:TX:a:rj:t=Solo	!	!	!	!	!	!	!
8A\L	.	.	8a/L	p	4a/	p	4A\	Re-	4c#\	Re-	2.r	.	.	.
8A\	.	.	8e/	.	.	.	.	.	.	.	.	.	.	.
8A\	.	.	8a/	.	4cc#/	.	4A\	-gi-	4c#\	-gi-	.	.	.	.
8A\	.	.	8e/	.	.	.	.	.	.	.	.	.	.	.
8A\	.	.	8a/	.	4cc#/	.	4A\	-na	4c#\	-na	.	.	.	.
8A\J	.	.	8e/J	.	.	.	.	.	.	.	.	.	.	.
!	!	!	!	!	!	!	!LO:LB:g=original	!	!	!	!	!	!	!
=50	=50	=50	=50	=50	=50	=50	=50	=50	=50	=50	=50	=50	=50	=50
*	*	*	*	*	*2\right	*	*	*	*	*	*	*	*	*
8D\L	.	.	8b/L	.	2dd\	.	2B\	ma-	2d\	Mar-	2.r	.	0.r	0.r
8D\	.	.	8e/	.	.	.	.	.	.	.	.	.	.	.
8D\	.	.	8b/	.	.	.	.	.	.	.	.	.	.	.
8D\J	.	.	8e/J	.	.	.	.	.	.	.	.	.	.	.
*Xtremolo	*	*	*Xtremolo	*	*	*	*	*	*	*	*	*	*	*
8E\L	7 #	.	8g#X/L	.	4b\	.	4G#X\	-ty-	4B\	-ti-	.	.	.	.
8E\J	.	.	8e/J	.	.	.	.	.	.	.	.	.	.	.
=51	=51	=51	=51	=51	=51	=51	=51	=51	=51	=51	=51	=51	=51	=51
!	!	!	!	!LO:DY:rj	!	!	!	!	!	!	!	!	!	!
4A\	3	.	8a\L	f	16cc#\LL	.	4A\	-rum	4c#\	-rum	2.r	.	.	.
*	*	*	*	*	*	*	*	*	*	*Xij	*	*	*	*
.	.	.	.	.	16a\	.	.	.	.	.	.	.	.	.
.	.	.	16b\L	.	16b\	.	.	.	.	.	.	.	.	.
.	.	.	16cc#\JJ	.	16cc#\JJ	.	.	.	.	.	.	.	.	.
4AA/	.	.	16dd\LL	.	16dd\LL	.	4r	.	4r	.	.	.	.	.
.	.	.	16ee\	.	16ee\	.	.	.	.	.	.	.	.	.
.	.	.	16ff#\	.	16ff#\	.	.	.	.	.	.	.	.	.
.	.	.	16gg#X\JJ	.	16gg#X\JJ	.	.	.	.	.	.	.	.	.
4r	.	.	16aa\LL	.	16aa\LL	.	4r	.	4r	.	.	.	.	.
.	.	.	16ee\	.	16ee\	.	.	.	.	.	.	.	.	.
.	.	.	16cc#\	.	16cc#\	.	.	.	.	.	.	.	.	.
.	.	.	16a\JJ	.	16a\JJ	.	.	.	.	.	.	.	.	.
!	!	!	!	!	!LO:LB:g=original	!	!	!	!	!	!	!	!	!
=52	=52	=52	=52	=52	=52	=52	=52	=52	=52	=52	=52	=52	=52	=52
*tremolo	*	*	*tremolo	*	*	*	*	*	*	*	*	*	*	*
!	!	!	!	!LO:DY:rj	!	!	!	!	!	!	!	!	!	!
8A\L	3	.	8cc#/L	p	8.ee\L	p	4c#\	Re-	4e\	Re-	2.r	.	.	.
8A\	.	.	8e/	.	.	.	.	.	.	.	.	.	.	.
.	.	.	.	.	32ff#\LL	.	.	.	.	.	.	.	.	.
.	.	.	.	.	32gg#X\JJJ	.	.	.	.	.	.	.	.	.
8A\	.	.	8cc#/	.	8aa\L	.	4c#\	-gi-	4e\	-gi-	.	.	.	.
8A\	.	.	8e/	.	8gg#\	.	.	.	.	.	.	.	.	.
8A\	.	.	8cc#/	.	8ff#\	.	4c#\	-na	4e\	-na	.	.	.	.
8A\J	.	.	8e/J	.	8ee\J	.	.	.	.	.	.	.	.	.
=53	=53	=53	=53	=53	=53	=53	=53	=53	=53	=53	=53	=53	=53	=53
8G#X\L	5 3	.	8b/L	.	8dd\L	.	2B\	Con-	2d\	Con-	2.r	.	.	.
!	!	!	!	!	!LO:SIC:v:o=8gg\J	!	!	!	!	!	!	!	!	!
8G#\	.	.	8e/	.	8gg#\J	.	.	.	.	.	.	.	.	.
8G#\	.	.	8b/	.	4.bb\	.	.	.	.	.	.	.	.	.
8G#\J	.	.	8e/	.	.	.	.	.	.	.	.	.	.	.
*Xtremolo	*	*	*	*	*	*	*	*	*	*	*	*	*	*
!	!	!	!	!	!	!	!LO:SIC:v:o=4G\	!	!	!	!	!	!	!
8E\L	5 #	.	8b/	.	.	.	4G#\	-fes-	4d\	-feſ-	.	.	.	.
8E\J	.	.	8e/J	.	8dd\	.	.	.	.	.	.	.	.	.
*	*	*	*Xtremolo	*	*	*	*	*	*	*	*	*	*	*
!	!	!	!	!	!	!	!	!	!LO:LB:g=original	!	!	!	!	!
=54	=54	=54	=54	=54	=54	=54	=54	=54	=54	=54	=54	=54	=54	=54
8A\L	3	.	8a/L	.	8cc#\L	.	4A\	-so-	2.c#\	-so-	2.r	.	0.r	0.r
8A\J	.	.	8e/	.	8ee\J	.	.	.	.	.	.	.	.	.
!LO:LB:g=original	!	!	!	!	!	!	!	!	!	!	!	!	!	!
8F#\L	.	.	8a/	.	4.aa\	.	4F#\	.	.	.	.	.	.	.
8F#\	.	.	8e/J	.	.	.	.	.	.	.	.	.	.	.
8D#X\	.	.	8a/L	.	.	.	4D#X\	.	.	.	.	.	.	.
8D#\J	.	.	8d#X/J	.	8cc#\	.	.	.	.	.	.	.	.	.
=55	=55	=55	=55	=55	=55	=55	=55	=55	=55	=55	=55	=55	=55	=55
!	!	!	!	!LO:DY:t=for.	!	!	!	!	!	!	!	!	!	!
4E\	5 #	.	4e/	f	4cc#\	.	4E\	-rum	4B\	-rum	2.r	.	.	.
!	!	!	!LO:TX:t=P:problem=mixed beam	!	!	!	!	!	!	!	!	!	!	!
4EE/	.	.	16e/LL	.	16b\LL	.	4r	.	4r	.	.	.	.	.
.	.	.	16ee\	.	16ee\	.	.	.	.	.	.	.	.	.
.	.	.	16b\	.	16b\	.	.	.	.	.	.	.	.	.
!	!	!	!LO:SIC:v:o=16g\JJ	!	!	!	!	!	!	!	!	!	!	!
.	.	.	16g#\JJ	.	16g#X\JJ	.	.	.	.	.	.	.	.	.
4r	.	.	4e/	.	4e/	.	4r	.	4r	.	.	.	.	.
!	!	!	!LO:LB:g=original	!	!	!	!	!	!	!	!	!	!	!
=56	=56	=56	=56	=56	=56	=56	=56	=56	=56	=56	=56	=56	=56	=56
*tremolo	*	*	*	*	*	*	*	*	*	*	*	*	*	*
!	!	!	!	!LO:DY:rj:t=p	!	!	!	!	!	!	!	!	!	!
8E\L	7 5	.	4.d/	p	4.b\	p	1.r	.	4.d\	Re-	2.r	.	.	.
8E\	.	.	.	.	.	.	.	.	.	.	.	.	.	.
8E\	.	.	.	.	.	.	.	.	.	.	.	.	.	.
8E\	.	.	16c#/LL	.	16a\LL	.	.	.	16c#\LL	.	.	.	.	.
.	.	.	16d/JJ	.	16b\JJ	.	.	.	16d\JJ	.	.	.	.	.
8E\	.	.	8e/L	.	8cc#\L	.	.	.	8e\	-gi-	.	.	.	.
8E\J	.	.	8d/J	.	8b\J	.	.	.	8d\	-na	.	.	.	.
=57	=57	=57	=57	=57	=57	=57	=57	=57	=57	=57	=57	=57	=57	=57
8E\L	6 4	.	8d/L	.	8b\L	.	.	.	8d\	vir-	2.r	.	.	.
8E\	.	.	8c#/J	.	8a\J	.	.	.	8c#\	-gi-	.	.	.	.
8E\	.	.	2c#/	.	2a\	.	.	.	2c#\	-num	.	.	.	.
8E\	.	.	.	.	.	.	.	.	.	.	.	.	.	.
8E\	.	.	.	.	.	.	.	.	.	.	.	.	.	.
8E\J	.	.	.	.	.	.	.	.	.	.	.	.	.	.
=58	=58	=58	=58	=58	=58	=58	=58	=58	=58	=58	=58	=58	=58	=58
8E\L	#	.	8B/L	.	2.g#X/	.	4.d\	Re-	4.B\	O-	2.r	.	0.r	0.r
8E\	.	.	8d/	.	.	.	.	.	.	.	.	.	.	.
8E\	.	.	8e/	.	.	.	.	.	.	.	.	.	.	.
8E\	.	.	8d/	.	.	.	16c#\LL	.	16A\LL	.	.	.	.	.
.	.	.	.	.	.	.	16d\JJ	.	16B\JJ	.	.	.	.	.
8E\	.	.	8B/	.	.	.	8e\	-gi-	8c#\	-ra	.	.	.	.
8E\J	.	.	8d/J	.	.	.	8d\	-na	8B\	pro	.	.	.	.
!	!	!	!	!	!	!	!LO:LB:g=original	!	!	!	!	!	!	!
=59	=59	=59	=59	=59	=59	=59	=59	=59	=59	=59	=59	=59	=59	=59
8E\L	4	.	8A/L	.	2.a/	.	8d\	vir-	8B\L	no-	2.r	.	.	.
8E\	.	.	8d/	.	.	.	8c#\	-gi-	8A\J	.	.	.	.	.
8E\	.	.	8e/	.	.	.	2c#\	-num	2A\	-bis	.	.	.	.
8E\	.	.	8c#/	.	.	.	.	.	.	.	.	.	.	.
8E\	.	.	8A/	.	.	.	.	.	.	.	.	.	.	.
8E\J	.	.	8c#/J	.	.	.	.	.	.	.	.	.	.	.
=60	=60	=60	=60	=60	=60	=60	=60	=60	=60	=60	=60	=60	=60	=60
*	*	*	*	*	*	*	*	*	*	*ij	*	*	*	*
8E\L	7 5	.	4.B/	.	4.d/	.	4.B\	O-	4.d\	O-	2.r	.	.	.
8E\	.	.	.	.	.	.	.	.	.	.	.	.	.	.
8E\	.	.	.	.	.	.	.	.	.	.	.	.	.	.
8E\	.	.	16A/LL	.	16c#/LL	.	16B\LL	.	16c#\LL	.	.	.	.	.
.	.	.	16B/JJ	.	16d/JJ	.	16c#\JJ	.	16d\JJ	.	.	.	.	.
!	!	!	!	!	!	!	!	!	!LO:LB:g=original	!	!	!	!	!
8E\	.	.	8c#/L	.	8e/L	.	8c#\	-ra	8e\	-ra	.	.	.	.
8E\J	.	.	8B/J	.	8d/J	.	8B\	pro	8d\	pro	.	.	.	.
=61	=61	=61	=61	=61	=61	=61	=61	=61	=61	=61	=61	=61	=61	=61
8E\L	6 4	.	8B/L	.	8d/L	.	8B\L	no-	8d\L	no-	2.r	.	.	.
8E\	.	.	8A/J	.	8c#/J	.	8A\J	.	8c#\J	.	.	.	.	.
8E\	.	.	2A/	.	2c#/	.	2A\	-bis	2c#\	-bis	.	.	.	.
8E\	.	.	.	.	.	.	.	.	.	.	.	.	.	.
8E\	.	.	.	.	.	.	.	.	.	.	.	.	.	.
8E\J	.	.	.	.	.	.	.	.	.	.	.	.	.	.
!	!	!	!	!	!LO:LB:g=original	!	!	!	!	!	!	!	!	!
=62	=62	=62	=62	=62	=62	=62	=62	=62	=62	=62	=62	=62	=62	=62
8E\L	#	.	8B/L	.	2.g#X/	.	4.d\	O-	4.B\	O-	2.r	.	0.r	0.r
8E\	.	.	8d/	.	.	.	.	.	.	.	.	.	.	.
8E\	.	.	8e/	.	.	.	.	.	.	.	.	.	.	.
8E\	.	.	8d/	.	.	.	16c#\LL	.	16A\LL	.	.	.	.	.
.	.	.	.	.	.	.	16d\JJ	.	16B\JJ	.	.	.	.	.
8E\	.	.	8B/	.	.	.	8e\	-ra	8c#\	-ra	.	.	.	.
8E\J	.	.	8d/J	.	.	.	8d\	pro	8B\	pro	.	.	.	.
*Xtremolo	*	*	*	*	*	*	*	*	*	*	*	*	*	*
=63	=63	=63	=63	=63	=63	=63	=63	=63	=63	=63	=63	=63	=63	=63
8E\L	4	.	8A/L	.	2.a/	.	8d\L	no-	8B\L	no-	2.r	.	.	.
8E\	.	.	8d/	.	.	.	8c#\J	.	8A\J	.	.	.	.	.
8A\	.	.	8e/	.	.	.	4c#\	-bis	2A\	-bis	.	.	.	.
*	*	*	*	*	*	*	*	*	*	*Xij	*	*	*	*
8E\	.	.	8c#/	.	.	.	.	.	.	.	.	.	.	.
8C#\	.	.	8A/	.	.	.	4r	.	.	.	.	.	.	.
8AA\J	.	.	8c#/J	.	.	.	.	.	.	.	.	.	.	.
!LO:LB:g=original	!	!	!	!	!	!	!	!	!	!	!	!	!	!
=64	=64	=64	=64	=64	=64	=64	=64	=64	=64	=64	=64	=64	=64	=64
*	*	*	*tremolo	*	*	*	*	*	*	*	*	*	*	*
8AA/L	.	.	8c#/L	.	4a\	.	4A\	O-	4A\	o-	2.r	.	.	.
8AA/	.	.	8c#/J	.	.	.	.	.	.	.	.	.	.	.
8GG#X/	3	.	8b/L	.	4dd\	.	4G#X\	.	4B\	.	.	.	.	.
8GG#/	.	.	8b/J	.	.	.	.	.	.	.	.	.	.	.
8AA/	3	.	8a/L	.	4cc#\	.	4A\	-ra	4c#\	-ra	.	.	.	.
8AA/J	.	.	8a/J	.	.	.	.	.	.	.	.	.	.	.
!	!	!	!LO:LB:g=original	!	!	!	!	!	!	!	!	!	!	!
=65	=65	=65	=65	=65	=65	=65	=65	=65	=65	=65	=65	=65	=65	=65
*	*	*	*	*	*	*	*	*ij	*	*ij	*	*	*	*
8BB/L	3	.	8g#X/L	.	4dd\	.	4B\	O-	4d\	o-	2.r	.	.	.
8BB/	.	.	8g#/J	.	.	.	.	.	.	.	.	.	.	.
8C#/	3	.	8a/L	.	4ee\	.	4c#\	.	4e\	.	.	.	.	.
8C#/	.	.	8a/J	.	.	.	.	.	.	.	.	.	.	.
8D/	3	.	8a/L	.	4ff#\	.	4d\	-ra	4f#\	.	.	.	.	.
8D/J	.	.	8a/J	.	.	.	.	.	.	.	.	.	.	.
=66	=66	=66	=66	=66	=66	=66	=66	=66	=66	=66	=66	=66	=66	=66
8C#\L	3	.	8cc#L 8e/	.	8ee\L	.	4c#\	O-	4e\	.	2.r	.	0.r	0.r
8C#\	.	.	8cc# 8e/	.	8aa\	.	.	.	.	.	.	.	.	.
8C#\	.	.	8cc# 8e/	.	8ee\	.	8c#\	-ra	8e\	-ra	.	.	.	.
*	*	*	*	*	*	*	*	*Xij	*	*Xij	*	*	*	*
8F#\	5	.	8cc#J 8e/	.	8cc#\	.	8A\	pro	8c#\	pro	.	.	.	.
*	*	*	*Xtremolo	*	*	*	*	*	*	*	*	*	*	*
8D\	8	.	8bL 8e/	.	8dd\	.	8B\L	no-	8d\L	no-	.	.	.	.
8E\J	5	.	8bJ 8e/	.	8gg#X\J	.	8G#X\J	.	8B\J	.	.	.	.	.
!	!	!	!	!	!	!	!	!	!LO:LB:g=original	!	!	!	!	!
=67	=67	=67	=67	=67	=67	=67	=67	=67	=67	=67	=67	=67	=67	=67
*	*	*	*tremolo	*	*	*	*	*	*	*	*	*	*	*
!LO:TX:t=P:problem=mixed beam	!	!	!	!	!	!	!	!	!	!	!	!	!	!
8A\L	.	.	8a/L	.	4aa\	.	4A\	-bis	4A\	-bis	2.r	.	.	.
8AA/	.	.	8a/J	.	.	.	.	.	.	.	.	.	.	.
8GG#X/	3	.	8b/L	.	4dd\	.	4G#X\	o-	4B\	o-	.	.	.	.
8GG#/	.	.	8b/J	.	.	.	.	.	.	.	.	.	.	.
8AA/	3	.	8a/L	.	4cc#\	.	4A\	-ra	4c#\	-ra	.	.	.	.
8AA/J	.	.	8a/J	.	.	.	.	.	.	.	.	.	.	.
=68	=68	=68	=68	=68	=68	=68	=68	=68	=68	=68	=68	=68	=68	=68
*	*	*	*	*	*	*	*	*ij	*	*	*	*	*	*
8BB/L	3	.	8g#X/L	.	4dd\	.	4B\	o-	(4d\	o-	2.r	.	.	.
8BB/	.	.	8g#/J	.	.	.	.	.	.	.	.	.	.	.
8C#/	3	.	8a/L	.	4ee\	.	4c#\	.	4e\)	.	.	.	.	.
8C#/	.	.	8a/	.	.	.	.	.	.	.	.	.	.	.
8D/	3	.	8a/	.	4ff#\	.	4d\	-ra	4f#\	-ra	.	.	.	.
8D/J	.	.	8a/J	.	.	.	.	.	.	.	.	.	.	.
=69	=69	=69	=69	=69	=69	=69	=69	=69	=69	=69	=69	=69	=69	=69
*	*	*	*	*	*	*	*	*	*	*ij	*	*	*	*
8C#\L	3	.	8cc#L 8e/	.	8ee\L	.	4c#\	o-	4e\	o-	2.r	.	.	.
8C#\	.	.	8cc# 8e/	.	8aa\	.	.	.	.	.	.	.	.	.
8C#\	.	.	8cc# 8e/	.	8ee\	.	8c#\	-ra	8e\	-ra	.	.	.	.
*	*	*	*	*	*	*	*	*Xij	*	*Xij	*	*	*	*
8F#\	5	.	8cc#J 8e/	.	8cc#\	.	8A\	pro	8c#\	pro	.	.	.	.
*	*	*	*Xtremolo	*	*	*	*	*	*	*	*	*	*	*
8D\	8	.	8bL 8e/	.	8dd\	.	8B\L	no-	8d\L	no-	.	.	.	.
8E\J	5	.	8bJ 8e/	.	8gg#X\J	.	8G#X\J	.	8B\J	.	.	.	.	.
!LO:LB:g=original	!	!	!	!	!	!	!	!	!	!	!	!	!	!
=70	=70	=70	=70	=70	=70	=70	=70	=70	=70	=70	=70	=70	=70	=70
4AA/	.	.	4cc# 4e 4A/	.	4aa 4a/	.	4A\	-bis	4A\	-bis	2.r	.	0.r	0.r
8A\L	.	.	4A/	.	4a/	.	4r	.	4r	.	.	.	.	.
8E\	.	.	.	.	.	.	.	.	.	.	.	.	.	.
8C#\	.	.	4r	.	4r	.	4r	.	4r	.	.	.	.	.
8AA\J	.	.	.	.	.	.	.	.	.	.	.	.	.	.
=71	=71	=71	=71	=71	=71	=71	=71	=71	=71	=71	=71	=71	=71	=71
*tremolo	*	*	*	*	*	*	*	*	*	*	*	*	*	*
!	!	!	!	!LO:DY:rj	!	!	!	!	!LO:TX:t=P:problem=tt. 71-85 zapisane repetycją	!	!	!	!	!
8E\L	7 5	.	4.d/	p	4.b\	p	1.r	.	4.d\yy	Re-	2.r	.	.	.
8E\	.	.	.	.	.	.	.	.	.	.	.	.	.	.
8E\	.	.	.	.	.	.	.	.	.	.	.	.	.	.
8E\	.	.	16c#/LL	.	16a\LL	.	.	.	16c#\LLyy	.	.	.	.	.
.	.	.	16d/JJ	.	16b\JJ	.	.	.	16d\JJyy	.	.	.	.	.
8E\	.	.	8e/L	.	8cc#\L	.	.	.	8e\yy	-gi-	.	.	.	.
8E\J	.	.	8d/J	.	8b\J	.	.	.	8d\yy	-na	.	.	.	.
!	!	!	!	!	!LO:LB:g=original	!	!	!	!	!	!	!	!	!
=72	=72	=72	=72	=72	=72	=72	=72	=72	=72	=72	=72	=72	=72	=72
8E\L	6 4	.	8d/L	.	8b\L	.	.	.	8d\ryy	vir-	2.r	.	.	.
8E\	.	.	8c#/J	.	8a\J	.	.	.	8c#\ryy	-gi-	.	.	.	.
8E\	.	.	2c#/	.	2a\	.	.	.	2c#\ryy	-num	.	.	.	.
8E\	.	.	.	.	.	.	.	.	.	.	.	.	.	.
8E\	.	.	.	.	.	.	.	.	.	.	.	.	.	.
8E\J	.	.	.	.	.	.	.	.	.	.	.	.	.	.
!	!	!	!	!	!	!	!LO:LB:g=original	!	!	!	!	!	!	!
=73	=73	=73	=73	=73	=73	=73	=73	=73	=73	=73	=73	=73	=73	=73
8E\L	#	.	8B/L	.	2.g#X/	.	4.d\	Re-	4.B\ryy	O-	2.r	.	.	.
8E\	.	.	8d/	.	.	.	.	.	.	.	.	.	.	.
8E\	.	.	8e/	.	.	.	.	.	.	.	.	.	.	.
8E\	.	.	8d/	.	.	.	16c#\LL	.	16A\LLryy	.	.	.	.	.
.	.	.	.	.	.	.	16d\JJ	.	16B\JJryy	.	.	.	.	.
8E\	.	.	8B/	.	.	.	8e\	-gi-	8c#\ryy	-ra	.	.	.	.
8E\J	.	.	8d/J	.	.	.	8d\	-na	8B\ryy	pro	.	.	.	.
!	!	!	!LO:LB:g=original	!	!	!	!	!	!	!	!	!	!	!
=74	=74	=74	=74	=74	=74	=74	=74	=74	=74	=74	=74	=74	=74	=74
8E\L	4	.	8A/L	.	2.a/	.	8d\	vir-	8B\Lryy	no-	2.r	.	0.r	0.r
8E\	.	.	8d/	.	.	.	8c#\	-gi-	8A\Jryy	.	.	.	.	.
8E\	.	.	8e/	.	.	.	2c#\	-num	2A\ryy	-bis	.	.	.	.
8E\	.	.	8c#/	.	.	.	.	.	.	.	.	.	.	.
8E\	.	.	8A/	.	.	.	.	.	.	.	.	.	.	.
8E\J	.	.	8c#/J	.	.	.	.	.	.	.	.	.	.	.
=75	=75	=75	=75	=75	=75	=75	=75	=75	=75	=75	=75	=75	=75	=75
*	*	*	*	*	*	*	*	*	*	*ij	*	*	*	*
8E\L	7 5	.	4.B/	.	4.d/	.	4.B\	O-	4.d\ryy	O-	2.r	.	.	.
8E\	.	.	.	.	.	.	.	.	.	.	.	.	.	.
8E\	.	.	.	.	.	.	.	.	.	.	.	.	.	.
8E\	.	.	16A/LL	.	16c#/LL	.	16B\LL	.	16c#\LLryy	.	.	.	.	.
.	.	.	16B/JJ	.	16d/JJ	.	16c#\JJ	.	16d\JJryy	.	.	.	.	.
!	!	!	!	!	!	!	!	!	!LO:LB:g=original	!	!	!	!	!
8E\	.	.	8c#/L	.	8e/L	.	8c#\	-ra	8e\ryy	-ra	.	.	.	.
8E\J	.	.	8B/J	.	8d/J	.	8B\	pro	8d\ryy	pro	.	.	.	.
=76	=76	=76	=76	=76	=76	=76	=76	=76	=76	=76	=76	=76	=76	=76
8E\L	6 4	.	8B/L	.	8d/L	.	8B\L	no-	8d\Lryy	no-	2.r	.	.	.
8E\	.	.	8A/J	.	8c#/J	.	8A\J	.	8c#\Jryy	.	.	.	.	.
8E\	.	.	2A/	.	2c#/	.	2A\	-bis	2c#\ryy	-bis	.	.	.	.
8E\	.	.	.	.	.	.	.	.	.	.	.	.	.	.
8E\	.	.	.	.	.	.	.	.	.	.	.	.	.	.
8E\J	.	.	.	.	.	.	.	.	.	.	.	.	.	.
=77	=77	=77	=77	=77	=77	=77	=77	=77	=77	=77	=77	=77	=77	=77
*	*	*	*	*	*	*	*	*ij	*	*	*	*	*	*
8E\L	#	.	8B/L	.	2.g#X/	.	4.d\	O-	4.B\ryy	O-	2.r	.	.	.
8E\	.	.	8d/	.	.	.	.	.	.	.	.	.	.	.
8E\	.	.	8e/	.	.	.	.	.	.	.	.	.	.	.
8E\	.	.	8d/	.	.	.	16c#\LL	.	16A\LLryy	.	.	.	.	.
.	.	.	.	.	.	.	16d\JJ	.	16B\JJryy	.	.	.	.	.
8E\	.	.	8B/	.	.	.	8e\	-ra	8c#\ryy	-ra	.	.	.	.
8E\J	.	.	8d/J	.	.	.	8d\	pro	8B\ryy	pro	.	.	.	.
*Xtremolo	*	*	*	*	*	*	*	*	*	*	*	*	*	*
!	!	!	!	!	!	!	!LO:LB:g=original	!	!	!	!	!	!	!
=78	=78	=78	=78	=78	=78	=78	=78	=78	=78	=78	=78	=78	=78	=78
8E\L	4	.	8A/L	.	2.a/	.	8d\L	no-	8B\Lryy	no-	2.r	.	0.r	0.r
8E\	.	.	8d/	.	.	.	8c#\J	.	8A\Jryy	.	.	.	.	.
8A\	.	.	8e/	.	.	.	2c#\	-bis	2A\ryy	-bis	.	.	.	.
*	*	*	*	*	*	*	*	*Xij	*	*Xij	*	*	*	*
8E\	.	.	8c#/	.	.	.	.	.	.	.	.	.	.	.
8C#\	.	.	8A/	.	.	.	.	.	.	.	.	.	.	.
!	!	!	!	!	!	!	!LO:TX:t=P:problem=dwa wykreślone takty	!	!	!	!	!	!	!
8AA\J	.	.	8c#/J	.	.	.	.	.	.	.	.	.	.	.
=79	=79	=79	=79	=79	=79	=79	=79	=79	=79	=79	=79	=79	=79	=79
8AA/L	.	.	8c#/L	.	4a\	.	4A\	O-	4A\ryy	o-	2.r	.	.	.
8AA/	.	.	8c#/J	.	.	.	.	.	.	.	.	.	.	.
8GG#X/	3	.	8b\L	.	4dd\	.	4G#X\	.	4B\ryy	.	.	.	.	.
8GG#/	.	.	8b\J	.	.	.	.	.	.	.	.	.	.	.
8AA/	3	.	8a\L	.	4cc#\	.	4A\	-ra	4c#\ryy	-ra	.	.	.	.
8AA/J	.	.	8a\J	.	.	.	.	.	.	.	.	.	.	.
!LO:LB:g=original	!	!	!	!	!	!	!	!	!	!	!	!	!	!
=80	=80	=80	=80	=80	=80	=80	=80	=80	=80	=80	=80	=80	=80	=80
*	*	*	*	*	*	*	*	*ij	*	*ij	*	*	*	*
8BB/L	3	.	8g#X/L	.	4dd\	.	4B\	O-	4d\ryy	o-	2.r	.	.	.
8BB/	.	.	8g#/	.	.	.	.	.	.	.	.	.	.	.
8C#/	3	.	8a/	.	4ee\	.	4c#\	.	4e\ryy	.	.	.	.	.
8C#/	.	.	8a/	.	.	.	.	.	.	.	.	.	.	.
8D/	3	.	8a/	.	4ff#\	.	4d\	-ra	4f#\ryy	.	.	.	.	.
8D/J	.	.	8a/J	.	.	.	.	.	.	.	.	.	.	.
=81	=81	=81	=81	=81	=81	=81	=81	=81	=81	=81	=81	=81	=81	=81
*	*	*	*tremolo	*	*	*	*	*	*	*	*	*	*	*
8C#\L	3	.	8cc#L 8e/	.	8ee\L	.	4c#\	O-	4e\ryy	.	2.r	.	.	.
8C#\	.	.	8cc# 8e/	.	8aa\	.	.	.	.	.	.	.	.	.
8C#\	.	.	8cc# 8e/	.	8ee\	.	8c#\	-ra	8e\ryy	-ra	.	.	.	.
*	*	*	*	*	*	*	*	*Xij	*	*Xij	*	*	*	*
8F#\	5	.	8cc#J 8e/	.	8cc#\	.	8A\	pro	8c#\ryy	pro	.	.	.	.
*	*	*	*Xtremolo	*	*	*	*	*	*	*	*	*	*	*
8D\	8	.	8bL 8e/	.	8dd\	.	8B\L	no-	8d\Lryy	no-	.	.	.	.
!	!	!	!LO:TX:b:i:t=verte Cito	!	!	!	!	!	!	!	!	!	!	!
8E\J	5	.	8bJ 8e/	.	8gg#X\J	.	8G#X\J	.	8B\Jryy	.	.	.	.	.
!	!	!	!LO:PB:g=original	!	!	!	!LO:LB:g=original	!	!LO:LB:g=original	!	!	!	!	!
=82	=82	=82	=82	=82	=82	=82	=82	=82	=82	=82	=82	=82	=82	=82
!LO:TX:t=P:problem=mixed beam	!	!	!	!	!	!	!	!	!	!	!	!	!	!
8A\L	.	.	8a/L	.	4aa\	.	4A\	-bis	4A\ryy	-bis	2.r	.	0.r	0.r
8AA/	.	.	8a/	.	.	.	.	.	.	.	.	.	.	.
8GG#X/	3	.	8b/	.	4dd\	.	4G#X\	O-	4B\ryy	o-	.	.	.	.
8GG#/	.	.	8b/	.	.	.	.	.	.	.	.	.	.	.
8AA/	3	.	8a/	.	4cc#\	.	4A\	-ra	4c#\ryy	-ra	.	.	.	.
8AA/J	.	.	8a/J	.	.	.	.	.	.	.	.	.	.	.
!	!	!	!	!	!LO:PB:g=original	!	!	!	!	!	!	!	!	!
=83	=83	=83	=83	=83	=83	=83	=83	=83	=83	=83	=83	=83	=83	=83
*	*	*	*	*	*	*	*	*ij	*	*	*	*	*	*
8BB/L	3	.	8g#X/L	.	4dd\	.	4B\	O-	(y4d\ryy	o-	2.r	.	.	.
8BB/	.	.	8g#/	.	.	.	.	.	.	.	.	.	.	.
8C#/	3	.	8a/	.	4ee\	.	4c#\	.	4e\)ryy	.	.	.	.	.
8C#/	.	.	8a/	.	.	.	.	.	.	.	.	.	.	.
8D/	3	.	8a/	.	4ff#\	.	4d\	-ra	4f#\ryy	-ra	.	.	.	.
8D/J	.	.	8a/J	.	.	.	.	.	.	.	.	.	.	.
=84	=84	=84	=84	=84	=84	=84	=84	=84	=84	=84	=84	=84	=84	=84
*	*	*	*tremolo	*	*	*	*	*	*	*ij	*	*	*	*
8C#\L	3	.	8cc#L 8e/	.	8ee\L	.	4c#\	O-	4e\ryy	o-	2.r	.	.	.
8C#\	.	.	8cc# 8e/	.	8aa\	.	.	.	.	.	.	.	.	.
8C#\	.	.	8cc# 8e/	.	8ee\	.	8c#\	-ra	8e\ryy	-ra	.	.	.	.
*	*	*	*	*	*	*	*	*Xij	*	*Xij	*	*	*	*
8F#\	5	.	8cc#J 8e/	.	8cc#\	.	8A\	pro	8c#\ryy	pro	.	.	.	.
*	*	*	*Xtremolo	*	*	*	*	*	*	*	*	*	*	*
8D\	8	.	8bL 8e/	.	8dd\	.	8B\L	no-	8d\Lryy	no-	.	.	.	.
8E\J	5	.	8bJ 8e/	.	8gg#X\J	.	8G#X\J	.	8B\Jryy	.	.	.	.	.
=85	=85	=85	=85	=85	=85	=85	=85	=85	=85	=85	=85	=85	=85	=85
!	!	!	!	!LO:DY:rj	!	!LO:DY:rj	!	!	!	!	!	!	!	!
4AA/	.	.	4cc# 4e 4A/	f	4a/	f	4A\	-bis	4A\yy	-bis	2.r	.	.	.
4AA/	.	.	4cc# 4e 4A/	.	4aa 4a/	.	4r	.	4ryy	.	.	.	.	.
4AA/	.	.	4cc# 4e 4A/	.	4aa 4a/	.	4r	.	4ryy	.	.	.	.	.
!LO:LB:g=original	!	!	!	!	!	!	!	!	!	!	!	!	!	!
=86	=86	=86	=86	=86	=86	=86	=86	=86	=86	=86	=86	=86	=86	=86
4AA/	.	.	4cc# 4e 4A/	.	4aa 4a/	.	2.r	.	2.r	.	2.r	.	1.r	1.r
8A\L	.	.	4r	.	4r	.	.	.	.	.	.	.	.	.
8Gn\	.	.	.	.	.	.	.	.	.	.	.	.	.	.
8F#\	.	.	4r	.	4r	.	.	.	.	.	.	.	.	.
8E\J	.	.	.	.	.	.	.	.	.	.	.	.	.	.
=87	=87	=87	=87	=87	=87	=87	=87	=87	=87	=87	=87	=87	=87	=87
!	!	!LO:DY:rj	!	!	!	!LO:DY:rj	!	!	!	!	!	!	!	!
4D 4DD/	.	f	4f# 4A/	.	4dd 4d/	f	8D\	Re-	8F#/	Re-	8dd\	Re-	.	.
.	.	.	.	.	.	.	8D\	-gi-	8F#/	-gi-	8dd\	-gi-	.	.
4r	.	.	4r	.	4r	.	8F#\	-na	8F#/	-na	8dd\	-na	.	.
.	.	.	.	.	.	.	8D\	San-	8F#/	San-	8dd\	San-	.	.
4r	.	.	4r	.	4r	.	8F#\	-cto-	8F#/	-cto-	8dd\	-cto-	.	.
.	.	.	.	.	.	.	8A\	-rum	8F#/	-rum	8dd\	-rum	.	.
!	!	!	!	!	!	!	!LO:LB:g=original	!	!	!	!	!	!LO:LB:g=original	!
=88	=88	=88	=88	=88	=88	=88	=88	=88	=88	=88	=88	=88	=88	=88
*	*	*	*tremolo	*	*	*	*	*	*	*	*	*	*	*
!LO:TX:t=P:problem=mixed beam	!	!	!	!LO:DY:rj	!	!	!	!	!	!	!	!	!	!
8DD/L	.	.	16d/LL	f	16dd/LL	.	8.d\	O-	8.F#/	O-	8.dd\	O-	8D/L	8D/L
.	.	.	16d/	.	16dd/	.	.	.	.	.	.	.	.	.
8D\	.	.	16d/	.	16f#/	.	.	.	.	.	.	.	16D/L	16D/L
*	*	*	*Xtremolo	*	*	*	*	*	*	*	*	*	*	*
.	.	.	16d/JJ	.	16f#/JJ	.	16D\	-mni-	16D/	-mni-	16d/	-mni-	16D/JJ	16D/JJ
8F#\	.	.	16f#/LL	.	16a/LL	.	4D\	-um	4D/	-um	4d/	-um	8F#/L	8F#/L
.	.	.	16f#/	.	16a/	.	.	.	.	.	.	.	.	.
8D\	.	.	16d/	.	16f#/	.	.	.	.	.	.	.	16D/L	16D/L
.	.	.	16d/JJ	.	16f#/JJ	.	.	.	.	.	.	.	16D/JJ	16D/JJ
8F#\	.	.	16f#/LL	.	16a/LL	.	4r	.	4r	.	4r	.	8F#/L	8F#/L
.	.	.	16f#/	.	16a/	.	.	.	.	.	.	.	.	.
8A\J	.	.	16a/	.	16dd/	.	.	.	.	.	.	.	8A/J	8A/J
.	.	.	16a/JJ	.	16dd/JJ	.	.	.	.	.	.	.	.	.
!	!	!	!	!	!	!	!	!	!LO:LB:g=original	!	!	!	!	!
=89	=89	=89	=89	=89	=89	=89	=89	=89	=89	=89	=89	=89	=89	=89
*	*	*	*	*	*	*	*	*ij	*	*ij	*	*ij	*	*
!	!	!	!	!	!	!	!	!	!	!	!	!	!LO:TX:t=P:problem=mixed beam	!LO:TX:t=P:problem=mixed beam
4d\	.	.	4dd 4d/	.	4ff# 4a 4d/	.	8D\	Re-	8d\	Re-	8ff#\	Re-	8.d\L	8.d\L
.	.	.	.	.	.	.	8D\	-gi-	8d\	-gi-	8ff#\	-gi-	.	.
.	.	.	.	.	.	.	.	.	.	.	.	.	16D/Jk	16D/Jk
4r	.	.	4r	.	4r	.	8F#\	-na	8d\	-na	8ff#\	-na	4D/	4D/
.	.	.	.	.	.	.	8D\	San-	8d\	San-	8ff#\	San-	.	.
4r	.	.	4r	.	4r	.	8F#\	-cto-	8d\	-cto-	8ff#\	-cto-	4r	4r
.	.	.	.	.	.	.	8A\	-rum	8d\	-rum	8ff#\	-rum	.	.
!	!	!	!LO:LB:g=original	!	!	!	!	!	!	!	!LO:LB:g=original	!	!	!
=90	=90	=90	=90	=90	=90	=90	=90	=90	=90	=90	=90	=90	=90	=90
!LO:TX:t=P:problem=mixed beam	!	!	!	!	!	!	!	!	!	!	!	!	!	!
8DD/L	.	.	16dd/LL	.	16ff#/LL	.	8.d\	O-	8.d\	O-	8.ff#\	O-	8D/L	8D/L
.	.	.	16dd/	.	16ff#/	.	.	.	.	.	.	.	.	.
8D\	.	.	16f#/	.	16a/	.	.	.	.	.	.	.	16D/L	16D/L
.	.	.	16f#/JJ	.	16a/JJ	.	16D\	-mni-	16D/	-mni-	16dd\	-mni-	16D/JJ	16D/JJ
8F#\	.	.	16a/LL	.	16dd/LL	.	4D\	-um	4D/	-um	4dd\	-um	8F#/L	8F#/L
.	.	.	16a/	.	16dd/	.	.	.	.	.	.	.	.	.
8D\	.	.	16f#/	.	16a/	.	.	.	.	.	.	.	16D/L	16D/L
.	.	.	16f#/JJ	.	16a/JJ	.	.	.	.	.	.	.	16D/JJ	16D/JJ
8F#\	.	.	16a/LL	.	16dd\LL	.	4r	.	4r	.	4r	.	8F#/L	8F#/L
.	.	.	16a/	.	16dd\	.	.	.	.	.	.	.	.	.
8A\J	.	.	16dd/	.	16ff#\	.	.	.	.	.	.	.	8A/J	8A/J
.	.	.	16dd/JJ	.	16ff#\JJ	.	.	.	.	.	.	.	.	.
!	!	!	!	!	!LO:LB:g=original	!	!	!	!	!	!	!	!	!LO:LB:g=original
=91	=91	=91	=91	=91	=91	=91	=91	=91	=91	=91	=91	=91	=91	=91
!	!	!	!	!	!	!	!	!	!	!	!	!	!LO:TX:t=P:problem=mixed beam	!LO:TX:t=P:problem=mixed beam
4d\	.	.	4ff# 4a 4d/	.	4aa 4a\	.	8D\	Re-	8f#\	Re-	8aa\	Re-	8.d\L	8.d\L
.	.	.	.	.	.	.	8D\	-gi-	8f#\	-gi-	8aa\	-gi-	.	.
.	.	.	.	.	.	.	.	.	.	.	.	.	16D/Jk	16D/Jk
4r	.	.	4r	.	4r	.	8F#\	-na	8f#\	-na	8aa\	-na	4D/	4D/
.	.	.	.	.	.	.	8D\	San-	8f#\	San-	8aa\	San-	.	.
4r	.	.	4r	.	4r	.	8F#\	-cto-	8f#\	-cto-	8aa\	-cto-	4r	4r
.	.	.	.	.	.	.	8A\	-rum	8f#\	-rum	8aa\	-rum	.	.
=92	=92	=92	=92	=92	=92	=92	=92	=92	=92	=92	=92	=92	=92	=92
!LO:TX:t=P:problem=mixed beam	!	!	!LO:TX:t=P:problem=mixed beam	!	!	!	!	!	!	!	!	!	!	!
8DD/L	.	.	16ff#\LL	.	16aa\LL	.	8.d\	O-	8.f#\	O-	8.aa\	O-	8D/L	8D/L
.	.	.	16ff#\	.	16aa\	.	.	.	.	.	.	.	.	.
8D\	.	.	16a/	.	16dd\	.	.	.	.	.	.	.	16D/L	16D/L
.	.	.	16a/JJ	.	16dd\JJ	.	16D\	-mni-	16d\	-mni-	16ff#\	-mni-	16D/JJ	16D/JJ
8F#\	.	.	16dd\LL	.	16ff#\LL	.	4D\	-um	4d\	-um	4ff#\	-um	8F#/L	8F#/L
.	.	.	16dd\	.	16ff#\	.	.	.	.	.	.	.	.	.
8D\	.	.	16a\	.	16dd\	.	.	.	.	.	.	.	16D/L	16D/L
.	.	.	16a\JJ	.	16dd\JJ	.	.	.	.	.	.	.	16D/JJ	16D/JJ
8F#\	.	.	16dd\LL	.	16ff#\LL	.	4r	.	4r	.	4r	.	8F#/L	8F#/L
.	.	.	16dd\	.	16ff#\	.	.	.	.	.	.	.	.	.
8A\J	.	.	16ff#\	.	16aa\	.	.	.	.	.	.	.	8A/J	8A/J
.	.	.	16ff#\JJ	.	16aa\JJ	.	.	.	.	.	.	.	.	.
!	!	!	!	!	!	!	!LO:LB:g=original	!	!	!	!	!	!LO:LB:g=original	!
=93	=93	=93	=93	=93	=93	=93	=93	=93	=93	=93	=93	=93	=93	=93
!LO:TX:t=P:problem=mixed beam	!	!	!	!LO:DY:rj	!	!LO:DY:rj	!	!	!	!	!	!	!	!
8DD/L	.	.	4dd 4d/	f	4ddd 4dd\	f	4d\	Re-	4A\	Re-	4ff#\	Re-	4d\	4d\
8D\J	.	.	.	.	.	.	.	.	.	.	.	.	.	.
*tremolo	*	*	*	*	*	*	*	*	*	*	*	*	*	*
8D\L	.	.	4ff# 4a 4d/	.	4ddd 4dd\	.	4d\	-gi-	4A\	-gi-	4ff#\	-gi-	4d\	4f#\
8D\	.	.	.	.	.	.	.	.	.	.	.	.	.	.
8D\	.	.	4ff# 4a 4d/	.	4ddd 4dd\	.	4d\	-na	4A\	-na	4ff#\	-na	4d\	4f#\
8D\J	.	.	.	.	.	.	.	.	.	.	.	.	.	.
*Xtremolo	*	*	*	*	*	*	*	*	*	*	*	*	*	*
!LO:LB:g=original	!	!	!	!	!	!	!	!	!LO:LB:g=original	!	!	!	!	!
=94	=94	=94	=94	=94	=94	=94	=94	=94	=94	=94	=94	=94	=94	=94
!LO:TX:t=P:problem=mixed beam	!	!	!	!	!	!	!	!	!	!	!	!	!	!
8DD/L	.	.	4ff# 4a 4d/	.	4ddd 4dd\	.	4d\	San-	4A\	San-	4ff#\	San-	2d\	2f#\
8D\J	.	.	.	.	.	.	.	.	.	.	.	.	.	.
*tremolo	*	*	*	*	*	*	*	*	*	*	*	*	*	*
8D\L	.	.	16d/LL	.	16ddd\LL	.	4d\	-cto-	4A\	-cto-	4ff#\	-cto-	.	.
.	.	.	16a/	.	16ccc#\	.	.	.	.	.	.	.	.	.
8D\	.	.	16f#/	.	16bb\	.	.	.	.	.	.	.	.	.
.	.	.	16a/JJ	.	16aa\JJ	.	.	.	.	.	.	.	.	.
*	*	*	*rep	*	*	*	*	*	*	*	*	*	*	*
8D\	.	.	16d/LL	.	16gg#X\LL	.	4d\	-rum	4A\	-rum	4ff#\	-rum	4d\	4f#\
.	.	.	16a/	.	16aa\	.	.	.	.	.	.	.	.	.
8D\J	.	.	16f#/	.	16bb\	.	.	.	.	.	.	.	.	.
.	.	.	16a/JJ	.	16aa\JJ	.	.	.	.	.	.	.	.	.
*Xtremolo	*	*	*Xrep	*	*	*	*	*	*	*	*	*	*	*
=95	=95	=95	=95	=95	=95	=95	=95	=95	=95	=95	=95	=95	=95	=95
!LO:TX:t=P:problem=mixed beam	!	!	!	!	!	!	!	!	!	!	!	!	!	!
8EE/L	6 3	.	4cc# 4e/	.	4gg 4a/	.	2e\	O-	2A\	O-	2gg\	O-	4e\	4g\
8E/J	.	.	.	.	.	.	.	.	.	.	.	.	.	.
*tremolo	*	*	*	*	*	*	*	*	*	*	*	*	*	*
8E\L	.	.	4cc# 4e/	.	4gg 4a/	.	.	.	.	.	.	.	8A/L	8e\L
8E\	.	.	.	.	.	.	.	.	.	.	.	.	8A/	8e\
8E\	.	.	4cc# 4e/	.	4gg 4a/	.	4e\	-mni-	4A\	-mni-	4gg\	-mni-	8A/	8e\
8E\J	.	.	.	.	.	.	.	.	.	.	.	.	8A/J	8e\J
*Xtremolo	*	*	*	*	*	*	*	*	*	*	*	*	*	*
!	!	!	!	!	!	!	!	!	!	!	!LO:LB:g=original	!	!	!
=96	=96	=96	=96	=96	=96	=96	=96	=96	=96	=96	=96	=96	=96	=96
!LO:TX:t=P:problem=mixed beam	!	!	!	!	!	!	!	!	!	!	!	!	!	!
8EE/L	.	.	4cc# 4e/	.	4.gg 4.a/	.	4e\	-um	4A\	-um	4gg\	-um	4e\	4g\
8E\J	.	.	.	.	.	.	.	.	.	.	.	.	.	.
*tremolo	*	*	*	*	*	*	*	*	*	*	*	*	*	*
8E\L	.	.	16e/LL	.	.	.	4r	.	4r	.	4r	.	4r	4r
.	.	.	16a/	.	.	.	.	.	.	.	.	.	.	.
8E\	.	.	16g/	.	8ff#\L	.	.	.	.	.	.	.	.	.
.	.	.	16a/JJ	.	.	.	.	.	.	.	.	.	.	.
*	*	*	*rep	*	*	*	*	*	*	*	*	*	*	*
8E\	.	.	16e/LL	.	8ee\	.	4r	.	4r	.	4r	.	4r	4r
.	.	.	16a/	.	.	.	.	.	.	.	.	.	.	.
8E\J	.	.	16g/	.	8dd\J	.	.	.	.	.	.	.	.	.
.	.	.	16a/JJ	.	.	.	.	.	.	.	.	.	.	.
*Xtremolo	*	*	*Xrep	*	*	*	*	*	*	*	*	*	*	*
!	!	!	!LO:LB:g=original	!	!	!	!	!	!	!	!	!	!	!
=97	=97	=97	=97	=97	=97	=97	=97	=97	=97	=97	=97	=97	=97	=97
!LO:TX:t=P:problem=mixed beam	!	!	!	!	!	!	!	!	!	!	!	!	!	!
8AA/L	7 5 3	.	4a 4e/	.	4cc# 4e/	.	4A\	Re-	4c#\	Re-	4ee\	Re-	4A/	4e\
8A\J	.	.	.	.	.	.	.	.	.	.	.	.	.	.
*tremolo	*	*	*	*	*	*	*	*	*	*	*	*	*	*
8A\L	.	.	4cc# 4g/	.	4aa 4a/	.	4A\	-gi-	4c#\	-gi-	4ee\	-gi-	4A/	4e\
8A\	.	.	.	.	.	.	.	.	.	.	.	.	.	.
8A\	.	.	4cc# 4g/	.	4aa 4a/	.	4A\	-na	4c#\	-na	4ee\	-na	4A/	4e\
8A\J	.	.	.	.	.	.	.	.	.	.	.	.	.	.
*Xtremolo	*	*	*	*	*	*	*	*	*	*	*	*	*	*
=98	=98	=98	=98	=98	=98	=98	=98	=98	=98	=98	=98	=98	=98	=98
!LO:TX:t=P:problem=mixed beam	!	!	!	!	!	!	!	!	!	!	!	!	!	!
8AA/L	.	.	4cc# 4g/	.	4aa 4a/	.	4A\	San-	4c#\	San-	4ee\	San-	2A/	2e\
8A\	.	.	.	.	.	.	.	.	.	.	.	.	.	.
8A\	.	.	16e/LL	.	16gg#X\LL	.	4A\	-cto-	4c#\	-cto-	4ee\	-cto-	.	.
.	.	.	16a/	.	16aa\	.	.	.	.	.	.	.	.	.
8A\	.	.	16g/	.	16bb\	.	.	.	.	.	.	.	.	.
.	.	.	16a/JJ	.	16aa\JJ	.	.	.	.	.	.	.	.	.
*	*	*	*rep	*	*	*	*	*	*	*	*	*	*	*
8B\	.	.	16e/LL	.	16gg#X\LL	.	8B\L	-rum	8d\L	-rum	8ff#\L	-rum	4e\	4g\
.	.	.	16a/	.	16aa\	.	.	.	.	.	.	.	.	.
8c#\J	.	.	16g/	.	16ee\	.	8c#\J	.	8e\J	.	8gg\J	.	.	.
.	.	.	16a/JJ	.	16ggn\JJ	.	.	.	.	.	.	.	.	.
*	*	*	*Xrep	*	*	*	*	*	*	*	*	*	*	*
!	!	!	!	!	!LO:LB:g=original	!	!	!	!	!	!	!	!	!
=99	=99	=99	=99	=99	=99	=99	=99	=99	=99	=99	=99	=99	=99	=99
8d\L	.	.	4f#/	.	4ff# 4a 4d/	.	2d\	O-	2d\	O-	2ff#\	O-	4d\	4f#\
8D\J	.	.	.	.	.	.	.	.	.	.	.	.	.	.
*tremolo	*	*	*	*	*	*	*	*	*	*	*	*	*	*
8D\L	.	.	4dd 4f# 4A/	.	4ff# 4a 4d/	.	.	.	.	.	.	.	8D/L	8d\L
8D\	.	.	.	.	.	.	.	.	.	.	.	.	8D/	8d\
8D\	.	.	4dd 4f# 4A/	.	4ff# 4a 4d/	.	4d\	-mni-	4d\	-mni-	4ff#\	-mni-	8D/	8d\
8D\J	.	.	.	.	.	.	.	.	.	.	.	.	8D/J	8d\J
!	!	!	!	!	!	!	!	!	!	!	!	!	!	!LO:LB:g=original
=100	=100	=100	=100	=100	=100	=100	=100	=100	=100	=100	=100	=100	=100	=100
*	*	*	*	*	*	*	*	*	*	*	*	*	*tremolo	*tremolo
!	!	!	!	!	!	!	!	!	!	!	!	!	!LO:TX:b:t=....	!LO:TX:a:t=||||
8D\L	.	.	4dd 4f# 4A/	.	4ff# 4a 4d/	.	4d\	-um	4d\	-um	4ff#\	-um	8D'/L	8d\L|
*	*	*	*	*	*	*	*	*Xij	*	*Xij	*	*Xij	*	*
8d\	.	.	.	.	.	.	.	.	.	.	.	.	8D'/	8d\|
8D\	.	.	16d/LL	.	16d/LL	.	4r	.	4r	.	4r	.	8D'/	8d\|
.	.	.	16c#/	.	16c#/	.	.	.	.	.	.	.	.	.
8d\	.	.	16d/	.	16d/	.	.	.	.	.	.	.	8D'/	8d\|
.	.	.	16c#/JJ	.	16c#/JJ	.	.	.	.	.	.	.	.	.
*	*	*	*rep	*	*rep	*	*	*	*	*	*	*	*	*
8D\	.	.	16d/LL	.	16d/LL	.	4r	.	4r	.	4r	.	8D'/	8d\|
.	.	.	16c#/	.	16c#/	.	.	.	.	.	.	.	.	.
8d\J	.	.	16d/	.	16d/	.	.	.	.	.	.	.	8D'/J	8d\J|
.	.	.	16c#/JJ	.	16c#/JJ	.	.	.	.	.	.	.	.	.
*	*	*	*Xrep	*	*Xrep	*	*	*	*	*	*	*	*Xtremolo	*Xtremolo
=101	=101	=101	=101	=101	=101	=101	=101	=101	=101	=101	=101	=101	=101	=101
8D\L	3	.	4d/	.	4d/	.	4r	.	4r	.	4r	.	4D/	4d\
8d\	.	.	.	.	.	.	.	.	.	.	.	.	.	.
8D\	.	.	4dd 4f#/	.	4ff# 4a 4d/	.	4r	.	4r	.	4r	.	4r	4r
8d\	5 3	.	.	.	.	.	.	.	.	.	.	.	.	.
8D\	.	.	4ff# 4a/	.	4aa 4a/	.	4d\	Re-	4d\	Re-	4dd\	Re-	4r	4r
8d\J	.	.	.	.	.	.	.	.	.	.	.	.	.	.
!LO:LB:g=original	!	!	!	!	!	!	!LO:LB:g=original	!	!LO:LB:g=original	!	!	!	!	!
=102	=102	=102	=102	=102	=102	=102	=102	=102	=102	=102	=102	=102	=102	=102
*	*	*	*	*	*	*	*	*	*	*	*	*	*tremolo	*tremolo
!	!	!	!	!	!	!	!	!	!	!	!	!	!LO:TX:b:t=....	!LO:TX:a:t=||||
8D\L	6 4	.	4gg 4b 4d/	.	4bb 4dd 4d/	.	4d\	-gi-	4d\	-gi-	4dd\	-gi-	8D'/L	8d\L|
8d\	.	.	.	.	.	.	.	.	.	.	.	.	8D'/	8d\|
8D\	.	.	16d/LL	.	16d/LL	.	4D\	-na	4D/	-na	4d/	-na	8D'/	8d\|
.	.	.	16c#/	.	16c#/	.	.	.	.	.	.	.	.	.
8d\	.	.	16d/	.	16d/	.	.	.	.	.	.	.	8D'/	8d\|
.	.	.	16c#/JJ	.	16c#/JJ	.	.	.	.	.	.	.	.	.
*	*	*	*rep	*	*rep	*	*	*	*	*	*	*	*	*
8D\	.	.	16d/LL	.	16d/LL	.	4r	.	4r	.	4r	.	8D'/	8d\|
.	.	.	16c#/	.	16c#/	.	.	.	.	.	.	.	.	.
8d\J	.	.	16d/	.	16d/	.	.	.	.	.	.	.	8D'/J	8d\J|
.	.	.	16c#/JJ	.	16c#/JJ	.	.	.	.	.	.	.	.	.
*	*	*	*Xrep	*	*Xrep	*	*	*	*	*	*	*	*Xtremolo	*Xtremolo
!	!	!	!	!	!	!	!	!	!	!	!	!	!LO:LB:g=original	!
=103	=103	=103	=103	=103	=103	=103	=103	=103	=103	=103	=103	=103	=103	=103
8D\L	4	.	4d/	.	4d/	.	4r	.	4r	.	4r	.	4D/	4d\
8d\	.	.	.	.	.	.	.	.	.	.	.	.	.	.
8D\	.	.	4b 4d/	.	4gg 4dd 4d/	.	4r	.	4r	.	4r	.	4r	4r
8d\	6 4	.	.	.	.	.	.	.	.	.	.	.	.	.
8D\	.	.	4gg 4b 4d/	.	4bb 4dd 4d/	.	4d\	San-	4d\	San-	4dd\	San-	4r	4r
8d\J	.	.	.	.	.	.	.	.	.	.	.	.	.	.
=104	=104	=104	=104	=104	=104	=104	=104	=104	=104	=104	=104	=104	=104	=104
*	*	*	*	*	*	*	*	*	*	*	*	*	*tremolo	*tremolo
!	!	!	!	!	!	!	!	!	!	!	!	!	!LO:TX:b:t=....	!LO:TX:a:t=||||
8D\L	5 3	.	4ff# 4a 4d/	.	4aa 4dd 4d/	.	4d\	-cto-	4d\	-cto-	4dd\	-cto-	8D'/L	8d\L|
8d\	.	.	.	.	.	.	.	.	.	.	.	.	8D'/	8d\|
8D\	.	.	16d/LL	.	16d/LL	.	4D\	-rum	4D/	-rum	4d/	-rum	8D'/	8d\|
.	.	.	16c#/	.	16c#/	.	.	.	.	.	.	.	.	.
8d\	.	.	16d/	.	16d/	.	.	.	.	.	.	.	8D'/	8d\|
.	.	.	16c#/JJ	.	16c#/JJ	.	.	.	.	.	.	.	.	.
*	*	*	*rep	*	*rep	*	*	*	*	*	*	*	*	*
8D\	.	.	16d/LL	.	16d/LL	.	4r	.	4r	.	4r	.	8D'/	8d\|
.	.	.	16c#/	.	16c#/	.	.	.	.	.	.	.	.	.
8d\J	.	.	16d/	.	16d/	.	.	.	.	.	.	.	8D'/J	8d\J|
.	.	.	16c#/JJ	.	16c#/JJ	.	.	.	.	.	.	.	.	.
*	*	*	*Xrep	*	*Xrep	*	*	*	*	*	*	*	*Xtremolo	*Xtremolo
!	!	!	!	!	!	!	!	!	!	!	!LO:LB:g=original	!	!	!
=105	=105	=105	=105	=105	=105	=105	=105	=105	=105	=105	=105	=105	=105	=105
8D\L	3	.	4d/	.	4d/	.	4r	.	4r	.	4r	.	4D/	4d\
8d\	.	.	.	.	.	.	.	.	.	.	.	.	.	.
8D\	.	.	4dd 4d/	.	4ff# 4a 4d/	.	4r	.	4r	.	4r	.	4r	4r
8d\	5 3	.	.	.	.	.	.	.	.	.	.	.	.	.
*	*	*	*	*	*	*	*	*	*	*ij	*	*ij	*	*
8D\	.	.	4ff# 4a 4d/	.	4aa 4a/	.	4d\	O-	4d\	San-	4ff#\	San-	4r	4r
8d\J	.	.	.	.	.	.	.	.	.	.	.	.	.	.
*Xtremolo	*	*	*	*	*	*	*	*	*	*	*	*	*	*
!	!	!	!LO:LB:g=original	!	!	!	!	!	!	!	!	!	!	!
=106	=106	=106	=106	=106	=106	=106	=106	=106	=106	=106	=106	=106	=106	=106
*	*	*	*tremolo	*	*	*	*	*	*	*	*	*	*	*
!LO:TX:t=P:problem=mixed beam	!	!	!	!	!	!	!	!	!	!	!	!	!	!
8AA/L	7 5	.	16cc#LL 16e/	.	4gg 4a\	.	2c#\	-mni-	2e\	-cto-	2gg\	-cto-	2.e\	2.g\
.	.	.	16cc# 16e/	.	.	.	.	.	.	.	.	.	.	.
8A\J	.	.	16cc# 16e/	.	.	.	.	.	.	.	.	.	.	.
.	.	.	16cc# 16e/	.	.	.	.	.	.	.	.	.	.	.
*tremolo	*	*	*	*	*	*	*	*	*	*	*	*	*	*
8A\L	.	.	16cc# 16e/	.	16gg\LL	.	.	.	.	.	.	.	.	.
.	.	.	16cc# 16e/	.	16aa\	.	.	.	.	.	.	.	.	.
8A\	.	.	16cc# 16e/	.	16bb\	.	.	.	.	.	.	.	.	.
.	.	.	16cc# 16e/	.	16aa\JJ	.	.	.	.	.	.	.	.	.
8A\	.	.	16cc# 16e/	.	16gg\LL	.	4c#\	-um	4e\	-rum	4gg\	-rum	.	.
*	*	*	*	*	*	*	*	*	*	*Xij	*	*Xij	*	*
.	.	.	16cc# 16e/	.	16ff#\	.	.	.	.	.	.	.	.	.
8A\J	.	.	16cc# 16e/	.	16ee\	.	.	.	.	.	.	.	.	.
.	.	.	16cc#JJ 16e/	.	16dd\JJ	.	.	.	.	.	.	.	.	.
*Xtremolo	*	*	*	*	*	*	*	*	*	*	*	*	*	*
=107	=107	=107	=107	=107	=107	=107	=107	=107	=107	=107	=107	=107	=107	=107
!LO:TX:t=P:problem=mixed beam	!	!	!	!	!	!	!	!	!	!	!	!	!	!
8AA/L	.	.	16cc#LL 16e/	.	4cc#\	.	2c#\	O-	2e\	O-	2gg\	O-	2.A/	2.e\
.	.	.	16cc# 16e/	.	.	.	.	.	.	.	.	.	.	.
8A\	.	.	16cc# 16e/	.	.	.	.	.	.	.	.	.	.	.
.	.	.	16cc# 16e/	.	.	.	.	.	.	.	.	.	.	.
8A\	.	.	16cc# 16e/	.	16cc#\LL	.	.	.	.	.	.	.	.	.
.	.	.	16cc# 16e/	.	16dd\	.	.	.	.	.	.	.	.	.
8A\	.	.	16cc# 16e/	.	16ee\	.	.	.	.	.	.	.	.	.
.	.	.	16cc# 16e/	.	16dd\JJ	.	.	.	.	.	.	.	.	.
!	!	!	!	!	!LO:LB:g=original	!	!	!	!	!	!	!	!	!
8B\	.	.	16cc# 16e/	.	16cc#\LL	.	4c#\	-mni-	4e\	-mni-	4gg\	-mni-	.	.
.	.	.	16cc# 16e/	.	16b\	.	.	.	.	.	.	.	.	.
8c#\J	.	.	16cc# 16e/	.	16a\	.	.	.	.	.	.	.	.	.
.	.	.	16cc#JJ 16e/	.	16g\JJ	.	.	.	.	.	.	.	.	.
*	*	*	*Xtremolo	*	*	*	*	*	*	*	*	*	*	*
=108	=108	=108	=108	=108	=108	=108	=108	=108	=108	=108	=108	=108	=108	=108
*tremolo	*	*	*	*	*	*	*	*	*	*	*	*	*tremolo	*tremolo
!LO:TX:t=P:problem=tt.108-115 zapisane repetycją	!	!	!	!	!LO:TX:t=P:problem=tt. 108-115 zapisane repetycją	!	!	!	!	!	!	!	!LO:TX:b:t=....	!LO:TX:a:t=||||
8D\Lyy	.	.	4dd 4f# 4A/	.	4ff#yy 4ayy 4d/yy	.	4d\	-um	4d\	-um	4ff#\	-um	8D'/L	8d\L|
8d\yy	.	.	.	.	.	.	.	.	.	.	.	.	8D'/	8d\|
8D\yy	.	.	16d/LL	.	16d/LLyy	.	4r	.	4r	.	4r	.	8D'/	8d\|
.	.	.	16c#/	.	16c#/yy	.	.	.	.	.	.	.	.	.
8d\yy	.	.	16d/	.	16d/yy	.	.	.	.	.	.	.	8D'/	8d\|
.	.	.	16c#/JJ	.	16c#/JJyy	.	.	.	.	.	.	.	.	.
*	*	*	*rep	*	*rep	*	*	*	*	*	*	*	*	*
8D\yy	.	.	16d/LL	.	16d/LLyy	.	4r	.	4r	.	4r	.	8D'/	8d\|
.	.	.	16c#/	.	16c#/yy	.	.	.	.	.	.	.	.	.
8d\Jyy	.	.	16d/	.	16d/yy	.	.	.	.	.	.	.	8D'/J	8d\J|
.	.	.	16c#/JJ	.	16c#/JJyy	.	.	.	.	.	.	.	.	.
*	*	*	*Xrep	*	*Xrep	*	*	*	*	*	*	*	*Xtremolo	*Xtremolo
=109	=109	=109	=109	=109	=109	=109	=109	=109	=109	=109	=109	=109	=109	=109
!	!	!	!	!	!	!	!LO:TX:t=P:problem=odtąd nuty są skreślone, ale powinny być	!	!	!	!	!	!	!
8D\Lyy	3	.	4d/	.	4d/yy	.	4r	.	4r	.	4r	.	4D/	4d\
8d\yy	.	.	.	.	.	.	.	.	.	.	.	.	.	.
8D\yy	.	.	4dd 4f#/	.	4ff#yy 4ayy 4d/yy	.	4r	.	4r	.	4r	.	4r	4r
8d\yy	5 3	.	.	.	.	.	.	.	.	.	.	.	.	.
8D\yy	.	.	4ff# 4a/	.	4aayy 4a/yy	.	4d\	Re-	4d\	Re-	4dd\	Re-	4r	4r
8d\Jyy	.	.	.	.	.	.	.	.	.	.	.	.	.	.
!LO:LB:g=original	!	!	!	!	!	!	!	!	!LO:LB:g=original	!	!	!	!	!
=110	=110	=110	=110	=110	=110	=110	=110	=110	=110	=110	=110	=110	=110	=110
*	*	*	*	*	*	*	*	*	*	*	*	*	*tremolo	*tremolo
!	!	!	!	!	!	!	!	!	!	!	!	!	!LO:TX:b:t=....	!LO:TX:a:t=||||
8D\Lyy	6 4	.	4gg 4b 4d/	.	4bbyy 4ddyy 4d/yy	.	4d\	-gi-	4d\	-gi-	4dd\	-gi-	8D'/L	8d\L|
8d\yy	.	.	.	.	.	.	.	.	.	.	.	.	8D'/	8d\|
8D\yy	.	.	16d/LL	.	16d/LLyy	.	4D\	-na	4D/	-na	4d/	-na	8D'/	8d\|
.	.	.	16c#/	.	16c#/yy	.	.	.	.	.	.	.	.	.
8d\yy	.	.	16d/	.	16d/yy	.	.	.	.	.	.	.	8D'/	8d\|
.	.	.	16c#/JJ	.	16c#/JJyy	.	.	.	.	.	.	.	.	.
*	*	*	*rep	*	*rep	*	*	*	*	*	*	*	*	*
8D\yy	.	.	16d/LL	.	16d/LLyy	.	4r	.	4r	.	4r	.	8D'/	8d\|
.	.	.	16c#/	.	16c#/yy	.	.	.	.	.	.	.	.	.
8d\Jyy	.	.	16d/	.	16d/yy	.	.	.	.	.	.	.	8D'/J	8d\J|
.	.	.	16c#/JJ	.	16c#/JJyy	.	.	.	.	.	.	.	.	.
*	*	*	*Xrep	*	*Xrep	*	*	*	*	*	*	*	*Xtremolo	*Xtremolo
!	!	!	!	!	!	!	!LO:LB:g=original	!	!	!	!	!	!	!
=111	=111	=111	=111	=111	=111	=111	=111	=111	=111	=111	=111	=111	=111	=111
8D\Lyy	4	.	4d/	.	4d/yy	.	4r	.	4r	.	4r	.	4D/	4d\
8d\yy	.	.	.	.	.	.	.	.	.	.	.	.	.	.
8D\yy	.	.	4b 4d/	.	4ggyy 4ddyy 4d/yy	.	4r	.	4r	.	4r	.	4r	4r
8d\yy	6 4	.	.	.	.	.	.	.	.	.	.	.	.	.
*	*	*	*	*	*	*	*	*	*	*ij	*	*	*	*
8D\yy	.	.	4gg 4b 4d/	.	4bbyy 4ddyy 4d/yy	.	4d\	San-	4d\	Re-	4dd\	San-	4r	4r
8d\Jyy	.	.	.	.	.	.	.	.	.	.	.	.	.	.
=112	=112	=112	=112	=112	=112	=112	=112	=112	=112	=112	=112	=112	=112	=112
*	*	*	*	*	*	*	*	*	*	*	*	*	*tremolo	*tremolo
!	!	!	!	!	!	!	!	!	!	!	!	!	!LO:TX:b:t=....	!LO:TX:a:t=||||
8D\Lyy	5 3	.	4ff# 4a 4d/	.	4aayy 4ddyy 4d/yy	.	4d\	-cto-	4d\	-gi-	4dd\	-cto-	8D'/L	8d\L|
8d\yy	.	.	.	.	.	.	.	.	.	.	.	.	8D'/	8d\|
8D\yy	.	.	16d/LL	.	16d/LLyy	.	4D\	-rum	4D/	-na	4d/	-rum	8D'/	8d\|
*	*	*	*	*	*	*	*	*	*	*Xij	*	*	*	*
.	.	.	16c#/	.	16c#/yy	.	.	.	.	.	.	.	.	.
8d\yy	.	.	16d/	.	16d/yy	.	.	.	.	.	.	.	8D'/	8d\|
.	.	.	16c#/JJ	.	16c#/JJyy	.	.	.	.	.	.	.	.	.
*	*	*	*rep	*	*rep	*	*	*	*	*	*	*	*	*
8D\yy	.	.	16d/LL	.	16d/LLyy	.	4r	.	4r	.	4r	.	8D'/	8d\|
.	.	.	16c#/	.	16c#/yy	.	.	.	.	.	.	.	.	.
8d\Jyy	.	.	16d/	.	16d/yy	.	.	.	.	.	.	.	8D'/J	8d\J|
.	.	.	16c#/JJ	.	16c#/JJyy	.	.	.	.	.	.	.	.	.
*	*	*	*Xrep	*	*Xrep	*	*	*	*	*	*	*	*Xtremolo	*Xtremolo
!	!	!	!	!	!	!	!	!	!	!	!LO:LB:g=original	!	!	!LO:LB:g=original
=113	=113	=113	=113	=113	=113	=113	=113	=113	=113	=113	=113	=113	=113	=113
8D\Lyy	3	.	4d/	.	4d/yy	.	4r	.	4r	.	4r	.	4D/	4d\
8d\yy	.	.	.	.	.	.	.	.	.	.	.	.	.	.
8D\yy	.	.	4dd 4d/	.	4ff#yy 4ayy 4d/yy	.	4r	.	4r	.	4r	.	4r	4r
8d\yy	5 3	.	.	.	.	.	.	.	.	.	.	.	.	.
*	*	*	*	*	*	*	*	*ij	*	*	*	*ij	*	*
8D\yy	.	.	4ff# 4a 4d/	.	4aayy 4a/yy	.	4d\	San-	4d\	San-	4ff#\	San-	4r	4r
8d\Jyy	.	.	.	.	.	.	.	.	.	.	.	.	.	.
*Xtremolo	*	*	*	*	*	*	*	*	*	*	*	*	*	*
=114	=114	=114	=114	=114	=114	=114	=114	=114	=114	=114	=114	=114	=114	=114
!LO:TX:t=P:problem=mixed beam	!	!	!	!	!	!	!	!	!	!	!	!	!	!
8AA/Lyy	7 5	.	16cc#LL 16e/	.	4ggyy 4a/yy	.	2c#\	-cto-	2e\	-cto-	2gg\	-cto-	2.e\	2.g\
.	.	.	16cc# 16e/	.	.	.	.	.	.	.	.	.	.	.
8A\Jyy	.	.	16cc# 16e/	.	.	.	.	.	.	.	.	.	.	.
.	.	.	16cc#JJ 16e/	.	.	.	.	.	.	.	.	.	.	.
*tremolo	*	*	*tremolo	*	*	*	*	*	*	*	*	*	*	*
8A\Lyy	.	.	16cc#LL 16e/	.	16gg\LLyy	.	.	.	.	.	.	.	.	.
.	.	.	16cc# 16e/	.	16aa\yy	.	.	.	.	.	.	.	.	.
8A\yy	.	.	16cc# 16e/	.	16bb\yy	.	.	.	.	.	.	.	.	.
.	.	.	16cc#JJ 16e/	.	16aa\JJyy	.	.	.	.	.	.	.	.	.
8A\yy	.	.	16cc#LL 16e/	.	16gg\LLyy	.	4c#\	-rum	4e\	-rum	4gg\	-rum	.	.
*	*	*	*	*	*	*	*	*Xij	*	*	*	*Xij	*	*
.	.	.	16cc# 16e/	.	16ff#\yy	.	.	.	.	.	.	.	.	.
8A\Jyy	.	.	16cc# 16e/	.	16ee\yy	.	.	.	.	.	.	.	.	.
.	.	.	16cc#JJ 16e/	.	16dd\JJyy	.	.	.	.	.	.	.	.	.
*Xtremolo	*	*	*	*	*	*	*	*	*	*	*	*	*	*
!	!	!	!	!	!	!	!	!	!	!	!	!	!LO:LB:g=original	!
=115	=115	=115	=115	=115	=115	=115	=115	=115	=115	=115	=115	=115	=115	=115
!LO:TX:t=P:problem=mixed beam	!	!	!	!	!	!	!	!	!	!	!	!	!	!
8AA/Lyy	.	.	16cc#LL 16e/	.	4cc#\yy	.	2c#\	O-	2e\	O-	2gg\	O-	2.A/	2.e\
.	.	.	16cc# 16e/	.	.	.	.	.	.	.	.	.	.	.
8A\yy	.	.	16cc# 16e/	.	.	.	.	.	.	.	.	.	.	.
.	.	.	16cc#JJ 16e/	.	.	.	.	.	.	.	.	.	.	.
8A\yy	.	.	16cc#LL 16e/	.	16cc#\LLyy	.	.	.	.	.	.	.	.	.
.	.	.	16cc# 16e/	.	16dd\yy	.	.	.	.	.	.	.	.	.
8A\yy	.	.	16cc# 16e/	.	16ee\yy	.	.	.	.	.	.	.	.	.
!	!	!	!	!	!LO:LB:g=original	!	!	!	!	!	!	!	!	!
.	.	.	16cc#JJ 16e/	.	16dd\JJyy	.	.	.	.	.	.	.	.	.
8B\yy	.	.	16cc#LL 16e/	.	16cc#\LLyy	.	4c#\	-mni-	4e\	-mni-	4gg\	-mni-	.	.
.	.	.	16cc# 16e/	.	16b\yy	.	.	.	.	.	.	.	.	.
8c#\Jyy	.	.	16cc# 16e/	.	16a\yy	.	.	.	.	.	.	.	.	.
.	.	.	16cc#JJ 16e/	.	16g\JJyy	.	.	.	.	.	.	.	.	.
*	*	*	*Xtremolo	*	*	*	*	*	*	*	*	*	*	*
!	!	!	!LO:LB:g=original	!	!	!	!	!	!	!	!	!	!	!
=116	=116	=116	=116	=116	=116	=116	=116	=116	=116	=116	=116	=116	=116	=116
!	!	!	!	!	!	!	!	!	!	!	!	!	!LO:TX:t=P:problem=mixed beam	!
8d\L	.	.	4dd 4f#/	.	4f#/	.	4d\	-um	4d\	-um	4ff#\	-um	8F#/L	8d\L
8D\	.	.	.	.	.	.	.	.	.	.	.	.	16d\L	16f#\L
.	.	.	.	.	.	.	.	.	.	.	.	.	16d\JJ	16f#\JJ
*	*	*	*	*	*	*	*	*	*	*	*	*	*tremolo	*
!	!	!	!	!	!	!	!	!	!	!	!	!	!LO:TX:a:t=....	!
8F#\	.	.	4f# 4A/	.	4dd 4d/	.	4r	.	4r	.	4r	.	8d'\L	8f#\L
8D\	.	.	.	.	.	.	.	.	.	.	.	.	8d'\	8f#\
8F#\	.	.	4f# 4A/	.	4dd 4d/	.	4d\	O-	4A\	O-	4ff#\	O-	8d'\	8f#\
8A\J	.	.	.	.	.	.	.	.	.	.	.	.	8d'\J	8f#\J
*	*	*	*	*	*	*	*	*	*	*	*	*	*Xtremolo	*
=117	=117	=117	=117	=117	=117	=117	=117	=117	=117	=117	=117	=117	=117	=117
8d\L	.	.	4f# 4A/	.	4dd/	.	4d\	-ra	4A\	-ra	4ff#\	-ra	8d\L	8f#\L
8D\	.	.	.	.	.	.	.	.	.	.	.	.	16f#\L	16a\L
.	.	.	.	.	.	.	.	.	.	.	.	.	16f#\JJ	16a\JJ
*	*	*	*	*	*	*	*	*	*	*	*	*	*tremolo	*
!	!	!	!	!	!	!	!	!	!	!	!	!	!LO:TX:a:t=....	!
8F#\	.	.	4dd 4f#/	.	4ff# 4a 4d/	.	4r	.	4r	.	4r	.	8f#'\L	8a\L
8D\	.	.	.	.	.	.	.	.	.	.	.	.	8f#'\	8a\
*	*	*	*	*	*	*	*	*ij	*	*	*	*ij	*	*
8F#\	.	.	4dd 4f#/	.	4ff# 4a 4d/	.	4d\	O-	4A\	O-	4ff#\	O-	8f#'\	8a\
*	*	*	*	*	*	*	*	*Xij	*	*	*	*	*	*
8A\J	.	.	.	.	.	.	.	.	.	.	.	.	8f#'\J	8a\J
*	*	*	*	*	*	*	*	*	*	*	*	*	*Xtremolo	*
!LO:LB:g=original	!	!	!	!	!	!	!	!	!LO:LB:g=original	!	!	!	!	!
=118	=118	=118	=118	=118	=118	=118	=118	=118	=118	=118	=118	=118	=118	=118
8d\L	.	.	4dd 4f#/	.	4aa\	.	4d\	-ra	4A\	-ra	4ff#\	-ra	4d\	4f#\
*	*	*	*	*	*	*	*	*	*	*	*	*Xij	*	*
8D\	.	.	.	.	.	.	.	.	.	.	.	.	.	.
8F#\	.	.	4ff# 4a 4d/	.	4ddd 4dd\	.	4d\	pro	4A\	pro	4ff#\	pro	4D/	4f#\
8D\	.	.	.	.	.	.	.	.	.	.	.	.	.	.
8F#\	.	.	4ff# 4a 4d/	.	4ddd 4dd\	.	4d\	no-	4A\	no-	4ff#\	no-	4D/	4f#\
8A\J	.	.	.	.	.	.	.	.	.	.	.	.	.	.
!	!	!	!	!	!	!	!LO:LB:g=original	!	!	!	!	!	!	!
=119	=119	=119	=119	=119	=119	=119	=119	=119	=119	=119	=119	=119	=119	=119
4d\	.	.	4ff# 4a 4d/	.	4ddd 4dd\	.	4d\	-bis	4A\	-bis	4ff#\	-bis	4D/	4f#\
4r	.	.	4r	.	4r	.	4r	.	4r	.	4r	.	4r	4r
4r	.	.	4r	.	4r	.	4r	.	4r	.	4r	.	4r	4r
==	==	==	==	==	==	==	==	==	==	==	==	==	==	==
*-	*-	*-	*-	*-	*-	*-	*-	*-	*-	*-	*-	*-	*-	*-
!!!system-decoration: [(g1)][(g2)][(g3)]s8
!!!RDF**kern: | = vertical stroke
!!!RDF**dynam: p = "p."
!!!RDF**dynam: f = "f."
!!!ENC: Anastazja Marusiak
!!!END: 2021-11-21
!!!ENC: Marta Lawrence
!!!END: 2021-12-01
